tests/files/FLog2_to_ACROS_33grid_V.1.00.cube
#title:FLog2_to_ACROS
#model:GFX ETERNA 55
#FUJIFILM Corporation
#Gamma:F-Log2 to ACROS
#Gamut:F-Gamut to ITU-R BT.709
#Version:1.00
LUT_3D_SIZE 9
0.000000 0.000000 0.000000
0.003906 0.003906 0.003906
0.026367 0.026367 0.026367
0.083984 0.083984 0.083984
0.192383 0.192383 0.192383
0.350586 0.350586 0.350586
0.395508 0.395508 0.395508
0.395508 0.395508 0.395508
0.395508 0.395508 0.395508
0.005859 0.005859 0.005859
0.008789 0.008789 0.008789
0.030273 0.030273 0.030273
0.099609 0.099609 0.099609
0.236328 0.236328 0.236328
0.381836 0.381836 0.381836
0.395508 0.395508 0.395508
0.395508 0.395508 0.395508
0.395508 0.395508 0.395508
0.055664 0.055664 0.055664
0.058594 0.058594 0.058594
0.083984 0.083984 0.083984
0.165039 0.165039 0.165039
0.299805 0.299805 0.299805
0.438477 0.438477 0.438477
0.444336 0.444336 0.444336
0.421875 0.421875 0.421875
0.400391 0.400391 0.400391
0.260742 0.260742 0.260742
0.266602 0.266602 0.266602
0.261719 0.261719 0.261719
0.326172 0.326172 0.326172
0.441406 0.441406 0.441406
0.563477 0.563477 0.563477
0.565430 0.565430 0.565430
0.538086 0.538086 0.538086
0.512695 0.512695 0.512695
0.638672 0.638672 0.638672
0.611328 0.611328 0.611328
0.580078 0.580078 0.580078
0.602539 0.602539 0.602539
0.661133 0.661133 0.661133
0.735352 0.735352 0.735352
0.711914 0.711914 0.711914
0.684570 0.684570 0.684570
0.656250 0.656250 0.656250
0.817383 0.817383 0.817383
0.812500 0.812500 0.812500
0.805664 0.805664 0.805664
0.815430 0.815430 0.815430
0.849609 0.849609 0.849609
0.889648 0.889648 0.889648
0.861328 0.861328 0.861328
0.830078 0.830078 0.830078
0.804688 0.804688 0.804688
0.833984 0.833984 0.833984
0.833984 0.833984 0.833984
0.833984 0.833984 0.833984
0.836914 0.836914 0.836914
0.861328 0.861328 0.861328
0.901367 0.901367 0.901367
0.941406 0.941406 0.941406
0.928711 0.928711 0.928711
0.916016 0.916016 0.916016
0.833984 0.833984 0.833984
0.833984 0.833984 0.833984
0.833984 0.833984 0.833984
0.833984 0.833984 0.833984
0.849609 0.849609 0.849609
0.883789 0.883789 0.883789
0.930664 0.930664 0.930664
0.941406 0.941406 0.941406
0.941406 0.941406 0.941406
0.833984 0.833984 0.833984
0.833984 0.833984 0.833984
0.833984 0.833984 0.833984
0.833984 0.833984 0.833984
0.840820 0.840820 0.840820
0.868164 0.868164 0.868164
0.912109 0.912109 0.912109
0.944336 0.944336 0.944336
0.941406 0.941406 0.941406
0.000000 0.000000 0.000000
0.004883 0.004883 0.004883
0.028320 0.028320 0.028320
0.088867 0.088867 0.088867
0.211914 0.211914 0.211914
0.361328 0.361328 0.361328
0.395508 0.395508 0.395508
0.395508 0.395508 0.395508
0.395508 0.395508 0.395508
0.008789 0.008789 0.008789
0.011719 0.011719 0.011719
0.034180 0.034180 0.034180
0.106445 0.106445 0.106445
0.258789 0.258789 0.258789
0.388672 0.388672 0.388672
0.395508 0.395508 0.395508
0.395508 0.395508 0.395508
0.395508 0.395508 0.395508
0.066406 0.066406 0.066406
0.063477 0.063477 0.063477
0.086914 0.086914 0.086914
0.164063 0.164063 0.164063
0.300781 0.300781 0.300781
0.435547 0.435547 0.435547
0.437500 0.437500 0.437500
0.414063 0.414063 0.414063
0.395508 0.395508 0.395508
0.290039 0.290039 0.290039
0.270508 0.270508 0.270508
0.258789 0.258789 0.258789
0.317383 0.317383 0.317383
0.436523 0.436523 0.436523
0.556641 0.556641 0.556641
0.556641 0.556641 0.556641
0.529297 0.529297 0.529297
0.505859 0.505859 0.505859
0.643555 0.643555 0.643555
0.610352 0.610352 0.610352
0.570313 0.570313 0.570313
0.589844 0.589844 0.589844
0.649414 0.649414 0.649414
0.724609 0.724609 0.724609
0.702148 0.702148 0.702148
0.675781 0.675781 0.675781
0.647461 0.647461 0.647461
0.818359 0.818359 0.818359
0.812500 0.812500 0.812500
0.803711 0.803711 0.803711
0.813477 0.813477 0.813477
0.844727 0.844727 0.844727
0.883789 0.883789 0.883789
0.853516 0.853516 0.853516
0.822266 0.822266 0.822266
0.795898 0.795898 0.795898
0.835938 0.835938 0.835938
0.834961 0.834961 0.834961
0.833984 0.833984 0.833984
0.836914 0.836914 0.836914
0.861328 0.861328 0.861328
0.902344 0.902344 0.902344
0.940430 0.940430 0.940430
0.924805 0.924805 0.924805
0.911133 0.911133 0.911133
0.835938 0.835938 0.835938
0.834961 0.834961 0.834961
0.833984 0.833984 0.833984
0.833984 0.833984 0.833984
0.850586 0.850586 0.850586
0.883789 0.883789 0.883789
0.931641 0.931641 0.931641
0.941406 0.941406 0.941406
0.941406 0.941406 0.941406
0.835938 0.835938 0.835938
0.834961 0.834961 0.834961
0.833984 0.833984 0.833984
0.833984 0.833984 0.833984
0.840820 0.840820 0.840820
0.868164 0.868164 0.868164
0.912109 0.912109 0.912109
0.944336 0.944336 0.944336
0.941406 0.941406 0.941406
0.007813 0.007813 0.007813
0.011719 0.011719 0.011719
0.038086 0.038086 0.038086
0.107422 0.107422 0.107422
0.239258 0.239258 0.239258
0.378906 0.378906 0.378906
0.395508 0.395508 0.395508
0.395508 0.395508 0.395508
0.395508 0.395508 0.395508
0.019531 0.019531 0.019531
0.021484 0.021484 0.021484
0.048828 0.048828 0.048828
0.129883 0.129883 0.129883
0.291016 0.291016 0.291016
0.397461 0.397461 0.397461
0.395508 0.395508 0.395508
0.395508 0.395508 0.395508
0.395508 0.395508 0.395508
0.092773 0.092773 0.092773
0.085938 0.085938 0.085938
0.107422 0.107422 0.107422
0.185547 0.185547 0.185547
0.317383 0.317383 0.317383
0.435547 0.435547 0.435547
0.430664 0.430664 0.430664
0.407227 0.407227 0.407227
0.395508 0.395508 0.395508
0.346680 0.346680 0.346680
0.307617 0.307617 0.307617
0.289063 0.289063 0.289063
0.339844 0.339844 0.339844
0.447266 0.447266 0.447266
0.552734 0.552734 0.552734
0.548828 0.548828 0.548828
0.521484 0.521484 0.521484
0.497070 0.497070 0.497070
0.658203 0.658203 0.658203
0.622070 0.622070 0.622070
0.583008 0.583008 0.583008
0.599609 0.599609 0.599609
0.650391 0.650391 0.650391
0.716797 0.716797 0.716797
0.694336 0.694336 0.694336
0.666992 0.666992 0.666992
0.638672 0.638672 0.638672
0.819336 0.819336 0.819336
0.813477 0.813477 0.813477
0.805664 0.805664 0.805664
0.812500 0.812500 0.812500
0.841797 0.841797 0.841797
0.878906 0.878906 0.878906
0.845703 0.845703 0.845703
0.813477 0.813477 0.813477
0.788086 0.788086 0.788086
0.836914 0.836914 0.836914
0.836914 0.836914 0.836914
0.836914 0.836914 0.836914
0.838867 0.838867 0.838867
0.863281 0.863281 0.863281
0.903320 0.903320 0.903320
0.939453 0.939453 0.939453
0.920898 0.920898 0.920898
0.906250 0.906250 0.906250
0.836914 0.836914 0.836914
0.836914 0.836914 0.836914
0.836914 0.836914 0.836914
0.835938 0.835938 0.835938
0.851563 0.851563 0.851563
0.885742 0.885742 0.885742
0.931641 0.931641 0.931641
0.941406 0.941406 0.941406
0.941406 0.941406 0.941406
0.836914 0.836914 0.836914
0.836914 0.836914 0.836914
0.835938 0.835938 0.835938
0.835938 0.835938 0.835938
0.842773 0.842773 0.842773
0.870117 0.870117 0.870117
0.913086 0.913086 0.913086
0.944336 0.944336 0.944336
0.941406 0.941406 0.941406
0.025391 0.025391 0.025391
0.026367 0.026367 0.026367
0.056641 0.056641 0.056641
0.146484 0.146484 0.146484
0.296875 0.296875 0.296875
0.428711 0.428711 0.428711
0.417969 0.417969 0.417969
0.406250 0.406250 0.406250
0.399414 0.399414 0.399414
0.044922 0.044922 0.044922
0.042969 0.042969 0.042969
0.079102 0.079102 0.079102
0.181641 0.181641 0.181641
0.346680 0.346680 0.346680
0.434570 0.434570 0.434570
0.419922 0.419922 0.419922
0.407227 0.407227 0.407227
0.398438 0.398438 0.398438
0.157227 0.157227 0.157227
0.150391 0.150391 0.150391
0.166016 0.166016 0.166016
0.248047 0.248047 0.248047
0.379883 0.379883 0.379883
0.476563 0.476563 0.476563
0.450195 0.450195 0.450195
0.412109 0.412109 0.412109
0.398438 0.398438 0.398438
0.407227 0.407227 0.407227
0.367188 0.367188 0.367188
0.350586 0.350586 0.350586
0.405273 0.405273 0.405273
0.502930 0.502930 0.502930
0.586914 0.586914 0.586914
0.563477 0.563477 0.563477
0.526367 0.526367 0.526367
0.492188 0.492188 0.492188
0.665039 0.665039 0.665039
0.636719 0.636719 0.636719
0.598633 0.598633 0.598633
0.627930 0.627930 0.627930
0.680664 0.680664 0.680664
0.741211 0.741211 0.741211
0.707031 0.707031 0.707031
0.670898 0.670898 0.670898
0.635742 0.635742 0.635742
0.814453 0.814453 0.814453
0.810547 0.810547 0.810547
0.804688 0.804688 0.804688
0.811523 0.811523 0.811523
0.845703 0.845703 0.845703
0.885742 0.885742 0.885742
0.851563 0.851563 0.851563
0.816406 0.816406 0.816406
0.785156 0.785156 0.785156
0.834961 0.834961 0.834961
0.835938 0.835938 0.835938
0.836914 0.836914 0.836914
0.840820 0.840820 0.840820
0.865234 0.865234 0.865234
0.909180 0.909180 0.909180
0.946289 0.946289 0.946289
0.920898 0.920898 0.920898
0.903320 0.903320 0.903320
0.834961 0.834961 0.834961
0.835938 0.835938 0.835938
0.836914 0.836914 0.836914
0.836914 0.836914 0.836914
0.854492 0.854492 0.854492
0.889648 0.889648 0.889648
0.937500 0.937500 0.937500
0.945313 0.945313 0.945313
0.943359 0.943359 0.943359
0.833984 0.833984 0.833984
0.835938 0.835938 0.835938
0.836914 0.836914 0.836914
0.836914 0.836914 0.836914
0.844727 0.844727 0.844727
0.873047 0.873047 0.873047
0.917969 0.917969 0.917969
0.948242 0.948242 0.948242
0.943359 0.943359 0.943359
0.062500 0.062500 0.062500
0.057617 0.057617 0.057617
0.098633 0.098633 0.098633
0.215820 0.215820 0.215820
0.386719 0.386719 0.386719
0.494141 0.494141 0.494141
0.480469 0.480469 0.480469
0.462891 0.462891 0.462891
0.444336 0.444336 0.444336
0.095703 0.095703 0.095703
0.100586 0.100586 0.100586
0.146484 0.146484 0.146484
0.285156 0.285156 0.285156
0.438477 0.438477 0.438477
0.505859 0.505859 0.505859
0.488281 0.488281 0.488281
0.467773 0.467773 0.467773
0.446289 0.446289 0.446289
0.276367 0.276367 0.276367
0.279297 0.279297 0.279297
0.272461 0.272461 0.272461
0.365234 0.365234 0.365234
0.482422 0.482422 0.482422
0.542969 0.542969 0.542969
0.509766 0.509766 0.509766
0.468750 0.468750 0.468750
0.446289 0.446289 0.446289
0.488281 0.488281 0.488281
0.454102 0.454102 0.454102
0.421875 0.421875 0.421875
0.497070 0.497070 0.497070
0.585938 0.585938 0.585938
0.641602 0.641602 0.641602
0.607422 0.607422 0.607422
0.571289 0.571289 0.571289
0.530273 0.530273 0.530273
0.630859 0.630859 0.630859
0.620117 0.620117 0.620117
0.604492 0.604492 0.604492
0.660156 0.660156 0.660156
0.724609 0.724609 0.724609
0.776367 0.776367 0.776367
0.735352 0.735352 0.735352
0.700195 0.700195 0.700195
0.663086 0.663086 0.663086
0.786133 0.786133 0.786133
0.785156 0.785156 0.785156
0.782227 0.782227 0.782227
0.798828 0.798828 0.798828
0.845703 0.845703 0.845703
0.894531 0.894531 0.894531
0.862305 0.862305 0.862305
0.829102 0.829102 0.829102
0.799805 0.799805 0.799805
0.818359 0.818359 0.818359
0.826172 0.826172 0.826172
0.831055 0.831055 0.831055
0.837891 0.837891 0.837891
0.866211 0.866211 0.866211
0.915039 0.915039 0.915039
0.957031 0.957031 0.957031
0.927734 0.927734 0.927734
0.909180 0.909180 0.909180
0.817383 0.817383 0.817383
0.825195 0.825195 0.825195
0.830078 0.830078 0.830078
0.833984 0.833984 0.833984
0.855469 0.855469 0.855469
0.893555 0.893555 0.893555
0.944336 0.944336 0.944336
0.955078 0.955078 0.955078
0.952148 0.952148 0.952148
0.816406 0.816406 0.816406
0.824219 0.824219 0.824219
0.830078 0.830078 0.830078
0.833008 0.833008 0.833008
0.843750 0.843750 0.843750
0.876953 0.876953 0.876953
0.923828 0.923828 0.923828
0.958008 0.958008 0.958008
0.952148 0.952148 0.952148
0.124023 0.124023 0.124023
0.116211 0.116211 0.116211
0.173828 0.173828 0.173828
0.330078 0.330078 0.330078
0.515625 0.515625 0.515625
0.570313 0.570313 0.570313
0.554688 0.554688 0.554688
0.538086 0.538086 0.538086
0.517578 0.517578 0.517578
0.195313 0.195313 0.195313
0.219727 0.219727 0.219727
0.264648 0.264648 0.264648
0.448242 0.448242 0.448242
0.569336 0.569336 0.569336
0.585938 0.585938 0.585938
0.567383 0.567383 0.567383
0.546875 0.546875 0.546875
0.523438 0.523438 0.523438
0.408203 0.408203 0.408203
0.412109 0.412109 0.412109
0.385742 0.385742 0.385742
0.497070 0.497070 0.497070
0.605469 0.605469 0.605469
0.618164 0.618164 0.618164
0.583984 0.583984 0.583984
0.551758 0.551758 0.551758
0.527344 0.527344 0.527344
0.525391 0.525391 0.525391
0.512695 0.512695 0.512695
0.495117 0.495117 0.495117
0.560547 0.560547 0.560547
0.672852 0.672852 0.672852
0.699219 0.699219 0.699219
0.662109 0.662109 0.662109
0.626953 0.626953 0.626953
0.589844 0.589844 0.589844
0.610352 0.610352 0.610352
0.604492 0.604492 0.604492
0.594727 0.594727 0.594727
0.625977 0.625977 0.625977
0.749023 0.749023 0.749023
0.809570 0.809570 0.809570
0.765625 0.765625 0.765625
0.734375 0.734375 0.734375
0.700195 0.700195 0.700195
0.686523 0.686523 0.686523
0.688477 0.688477 0.688477
0.693359 0.693359 0.693359
0.734375 0.734375 0.734375
0.821289 0.821289 0.821289
0.892578 0.892578 0.892578
0.875000 0.875000 0.875000
0.844727 0.844727 0.844727
0.819336 0.819336 0.819336
0.760742 0.760742 0.760742
0.777344 0.777344 0.777344
0.799805 0.799805 0.799805
0.818359 0.818359 0.818359
0.855469 0.855469 0.855469
0.916992 0.916992 0.916992
0.965820 0.965820 0.965820
0.937500 0.937500 0.937500
0.918945 0.918945 0.918945
0.760742 0.760742 0.760742
0.774414 0.774414 0.774414
0.797852 0.797852 0.797852
0.812500 0.812500 0.812500
0.844727 0.844727 0.844727
0.894531 0.894531 0.894531
0.951172 0.951172 0.951172
0.968750 0.968750 0.968750
0.964844 0.964844 0.964844
0.760742 0.760742 0.760742
0.770508 0.770508 0.770508
0.795898 0.795898 0.795898
0.811523 0.811523 0.811523
0.832031 0.832031 0.832031
0.874023 0.874023 0.874023
0.927734 0.927734 0.927734
0.971680 0.971680 0.971680
0.964844 0.964844 0.964844
0.236328 0.236328 0.236328
0.222656 0.222656 0.222656
0.295898 0.295898 0.295898
0.488281 0.488281 0.488281
0.642578 0.642578 0.642578
0.647461 0.647461 0.647461
0.635742 0.635742 0.635742
0.620117 0.620117 0.620117
0.600586 0.600586 0.600586
0.341797 0.341797 0.341797
0.366211 0.366211 0.366211
0.385742 0.385742 0.385742
0.536133 0.536133 0.536133
0.660156 0.660156 0.660156
0.664063 0.664063 0.664063
0.650391 0.650391 0.650391
0.631836 0.631836 0.631836
0.611328 0.611328 0.611328
0.462891 0.462891 0.462891
0.457031 0.457031 0.457031
0.450195 0.450195 0.450195
0.497070 0.497070 0.497070
0.661133 0.661133 0.661133
0.687500 0.687500 0.687500
0.663086 0.663086 0.663086
0.640625 0.640625 0.640625
0.616211 0.616211 0.616211
0.523438 0.523438 0.523438
0.514648 0.514648 0.514648
0.505859 0.505859 0.505859
0.496094 0.496094 0.496094
0.669922 0.669922 0.669922
0.745117 0.745117 0.745117
0.715820 0.715820 0.715820
0.687500 0.687500 0.687500
0.656250 0.656250 0.656250
0.603516 0.603516 0.603516
0.591797 0.591797 0.591797
0.579102 0.579102 0.579102
0.566406 0.566406 0.566406
0.679688 0.679688 0.679688
0.801758 0.801758 0.801758
0.790039 0.790039 0.790039
0.766602 0.766602 0.766602
0.739258 0.739258 0.739258
0.683594 0.683594 0.683594
0.674805 0.674805 0.674805
0.662109 0.662109 0.662109
0.648438 0.648438 0.648438
0.722656 0.722656 0.722656
0.848633 0.848633 0.848633
0.880859 0.880859 0.880859
0.857422 0.857422 0.857422
0.834961 0.834961 0.834961
0.760742 0.760742 0.760742
0.760742 0.760742 0.760742
0.760742 0.760742 0.760742
0.759766 0.759766 0.759766
0.802734 0.802734 0.802734
0.890625 0.890625 0.890625
0.959961 0.959961 0.959961
0.945313 0.945313 0.945313
0.927734 0.927734 0.927734
0.760742 0.760742 0.760742
0.760742 0.760742 0.760742
0.760742 0.760742 0.760742
0.760742 0.760742 0.760742
0.796875 0.796875 0.796875
0.875977 0.875977 0.875977
0.951172 0.951172 0.951172
0.986328 0.986328 0.986328
0.981445 0.981445 0.981445
0.760742 0.760742 0.760742
0.760742 0.760742 0.760742
0.760742 0.760742 0.760742
0.760742 0.760742 0.760742
0.778320 0.778320 0.778320
0.848633 0.848633 0.848633
0.923828 0.923828 0.923828
0.986328 0.986328 0.986328
0.981445 0.981445 0.981445
0.350586 0.350586 0.350586
0.356445 0.356445 0.356445
0.385742 0.385742 0.385742
0.546875 0.546875 0.546875
0.690430 0.690430 0.690430
0.708008 0.708008 0.708008
0.700195 0.700195 0.700195
0.691406 0.691406 0.691406
0.678711 0.678711 0.678711
0.420898 0.420898 0.420898
0.420898 0.420898 0.420898
0.420898 0.420898 0.420898
0.525391 0.525391 0.525391
0.672852 0.672852 0.672852
0.710938 0.710938 0.710938
0.710938 0.710938 0.710938
0.701172 0.701172 0.701172
0.687500 0.687500 0.687500
0.461914 0.461914 0.461914
0.455078 0.455078 0.455078
0.449219 0.449219 0.449219
0.477539 0.477539 0.477539
0.656250 0.656250 0.656250
0.716797 0.716797 0.716797
0.710938 0.710938 0.710938
0.708984 0.708984 0.708984
0.692383 0.692383 0.692383
0.521484 0.521484 0.521484
0.511719 0.511719 0.511719
0.501953 0.501953 0.501953
0.492188 0.492188 0.492188
0.657227 0.657227 0.657227
0.750977 0.750977 0.750977
0.743164 0.743164 0.743164
0.735352 0.735352 0.735352
0.714844 0.714844 0.714844
0.599609 0.599609 0.599609
0.587891 0.587891 0.587891
0.575195 0.575195 0.575195
0.561523 0.561523 0.561523
0.666016 0.666016 0.666016
0.781250 0.781250 0.781250
0.798828 0.798828 0.798828
0.787109 0.787109 0.787109
0.769531 0.769531 0.769531
0.680664 0.680664 0.680664
0.670898 0.670898 0.670898
0.657227 0.657227 0.657227
0.643555 0.643555 0.643555
0.707031 0.707031 0.707031
0.819336 0.819336 0.819336
0.875000 0.875000 0.875000
0.858398 0.858398 0.858398
0.843750 0.843750 0.843750
0.760742 0.760742 0.760742
0.760742 0.760742 0.760742
0.760742 0.760742 0.760742
0.752930 0.752930 0.752930
0.794922 0.794922 0.794922
0.865234 0.865234 0.865234
0.937500 0.937500 0.937500
0.943359 0.943359 0.943359
0.929688 0.929688 0.929688
0.760742 0.760742 0.760742
0.760742 0.760742 0.760742
0.760742 0.760742 0.760742
0.760742 0.760742 0.760742
0.797852 0.797852 0.797852
0.861328 0.861328 0.861328
0.940430 0.940430 0.940430
1.000000 1.000000 1.000000
0.998047 0.998047 0.998047
0.760742 0.760742 0.760742
0.760742 0.760742 0.760742
0.760742 0.760742 0.760742
0.760742 0.760742 0.760742
0.778320 0.778320 0.778320
0.833984 0.833984 0.833984
0.908203 0.908203 0.908203
0.985352 0.985352 0.985352
0.998047 0.998047 0.998047
0.411133 0.411133 0.411133
0.418945 0.418945 0.418945
0.420898 0.420898 0.420898
0.555664 0.555664 0.555664
0.695313 0.695313 0.695313
0.710938 0.710938 0.710938
0.710938 0.710938 0.710938
0.710938 0.710938 0.710938
0.710938 0.710938 0.710938
0.423828 0.423828 0.423828
0.418945 0.418945 0.418945
0.420898 0.420898 0.420898
0.533203 0.533203 0.533203
0.677734 0.677734 0.677734
0.710938 0.710938 0.710938
0.710938 0.710938 0.710938
0.710938 0.710938 0.710938
0.710938 0.710938 0.710938
0.459961 0.459961 0.459961
0.453125 0.453125 0.453125
0.446289 0.446289 0.446289
0.480469 0.480469 0.480469
0.658203 0.658203 0.658203
0.713867 0.713867 0.713867
0.710938 0.710938 0.710938
0.710938 0.710938 0.710938
0.710938 0.710938 0.710938
0.518555 0.518555 0.518555
0.508789 0.508789 0.508789
0.499023 0.499023 0.499023
0.489258 0.489258 0.489258
0.656250 0.656250 0.656250
0.749023 0.749023 0.749023
0.740234 0.740234 0.740234
0.733398 0.733398 0.733398
0.726563 0.726563 0.726563
0.595703 0.595703 0.595703
0.583984 0.583984 0.583984
0.571289 0.571289 0.571289
0.557617 0.557617 0.557617
0.663086 0.663086 0.663086
0.778320 0.778320 0.778320
0.794922 0.794922 0.794922
0.783203 0.783203 0.783203
0.772461 0.772461 0.772461
0.677734 0.677734 0.677734
0.666992 0.666992 0.666992
0.653320 0.653320 0.653320
0.638672 0.638672 0.638672
0.702148 0.702148 0.702148
0.816406 0.816406 0.816406
0.870117 0.870117 0.870117
0.853516 0.853516 0.853516
0.839844 0.839844 0.839844
0.760742 0.760742 0.760742
0.760742 0.760742 0.760742
0.758789 0.758789 0.758789
0.746094 0.746094 0.746094
0.788086 0.788086 0.788086
0.862305 0.862305 0.862305
0.934570 0.934570 0.934570
0.938477 0.938477 0.938477
0.922852 0.922852 0.922852
0.760742 0.760742 0.760742
0.760742 0.760742 0.760742
0.760742 0.760742 0.760742
0.760742 0.760742 0.760742
0.798828 0.798828 0.798828
0.862305 0.862305 0.862305
0.941406 0.941406 0.941406
1.000000 1.000000 1.000000
0.996094 0.996094 0.996094
0.760742 0.760742 0.760742
0.760742 0.760742 0.760742
0.760742 0.760742 0.760742
0.760742 0.760742 0.760742
0.779297 0.779297 0.779297
0.834961 0.834961 0.834961
0.910156 0.910156 0.910156
0.986328 0.986328 0.986328
1.000000 1.000000 1.000000
