tests/files/FLog2_to_ACROS_33grid_V.1.00.cube
#title:FLog2_to_ACROS
#model:GFX ETERNA 55
#FUJIFILM Corporation
#Gamma:F-Log2 to ACROS
#Gamut:F-Gamut to ITU-R BT.709
#Version:1.00
LUT_3D_SIZE 5
0.000000 0.000000 0.000000
0.026367 0.026367 0.026367
0.192383 0.192383 0.192383
0.395508 0.395508 0.395508
0.395508 0.395508 0.395508
0.055664 0.055664 0.055664
0.083984 0.083984 0.083984
0.299805 0.299805 0.299805
0.444336 0.444336 0.444336
0.400391 0.400391 0.400391
0.638672 0.638672 0.638672
0.580078 0.580078 0.580078
0.661133 0.661133 0.661133
0.711914 0.711914 0.711914
0.656250 0.656250 0.656250
0.833984 0.833984 0.833984
0.833984 0.833984 0.833984
0.861328 0.861328 0.861328
0.941406 0.941406 0.941406
0.916016 0.916016 0.916016
0.833984 0.833984 0.833984
0.833984 0.833984 0.833984
0.840820 0.840820 0.840820
0.912109 0.912109 0.912109
0.941406 0.941406 0.941406
0.007813 0.007813 0.007813
0.038086 0.038086 0.038086
0.239258 0.239258 0.239258
0.395508 0.395508 0.395508
0.395508 0.395508 0.395508
0.092773 0.092773 0.092773
0.107422 0.107422 0.107422
0.317383 0.317383 0.317383
0.430664 0.430664 0.430664
0.395508 0.395508 0.395508
0.658203 0.658203 0.658203
0.583008 0.583008 0.583008
0.650391 0.650391 0.650391
0.694336 0.694336 0.694336
0.638672 0.638672 0.638672
0.836914 0.836914 0.836914
0.836914 0.836914 0.836914
0.863281 0.863281 0.863281
0.939453 0.939453 0.939453
0.906250 0.906250 0.906250
0.836914 0.836914 0.836914
0.835938 0.835938 0.835938
0.842773 0.842773 0.842773
0.913086 0.913086 0.913086
0.941406 0.941406 0.941406
0.062500 0.062500 0.062500
0.098633 0.098633 0.098633
0.386719 0.386719 0.386719
0.480469 0.480469 0.480469
0.444336 0.444336 0.444336
0.276367 0.276367 0.276367
0.272461 0.272461 0.272461
0.482422 0.482422 0.482422
0.509766 0.509766 0.509766
0.446289 0.446289 0.446289
0.630859 0.630859 0.630859
0.604492 0.604492 0.604492
0.724609 0.724609 0.724609
0.735352 0.735352 0.735352
0.663086 0.663086 0.663086
0.818359 0.818359 0.818359
0.831055 0.831055 0.831055
0.866211 0.866211 0.866211
0.957031 0.957031 0.957031
0.909180 0.909180 0.909180
0.816406 0.816406 0.816406
0.830078 0.830078 0.830078
0.843750 0.843750 0.843750
0.923828 0.923828 0.923828
0.952148 0.952148 0.952148
0.236328 0.236328 0.236328
0.295898 0.295898 0.295898
0.642578 0.642578 0.642578
0.635742 0.635742 0.635742
0.600586 0.600586 0.600586
0.462891 0.462891 0.462891
0.450195 0.450195 0.450195
0.661133 0.661133 0.661133
0.663086 0.663086 0.663086
0.616211 0.616211 0.616211
0.603516 0.603516 0.603516
0.579102 0.579102 0.579102
0.679688 0.679688 0.679688
0.790039 0.790039 0.790039
0.739258 0.739258 0.739258
0.760742 0.760742 0.760742
0.760742 0.760742 0.760742
0.802734 0.802734 0.802734
0.959961 0.959961 0.959961
0.927734 0.927734 0.927734
0.760742 0.760742 0.760742
0.760742 0.760742 0.760742
0.778320 0.778320 0.778320
0.923828 0.923828 0.923828
0.981445 0.981445 0.981445
0.411133 0.411133 0.411133
0.420898 0.420898 0.420898
0.695313 0.695313 0.695313
0.710938 0.710938 0.710938
0.710938 0.710938 0.710938
0.459961 0.459961 0.459961
0.446289 0.446289 0.446289
0.658203 0.658203 0.658203
0.710938 0.710938 0.710938
0.710938 0.710938 0.710938
0.595703 0.595703 0.595703
0.571289 0.571289 0.571289
0.663086 0.663086 0.663086
0.794922 0.794922 0.794922
0.772461 0.772461 0.772461
0.760742 0.760742 0.760742
0.758789 0.758789 0.758789
0.788086 0.788086 0.788086
0.934570 0.934570 0.934570
0.922852 0.922852 0.922852
0.760742 0.760742 0.760742
0.760742 0.760742 0.760742
0.779297 0.779297 0.779297
0.910156 0.910156 0.910156
1.000000 1.000000 1.000000
