tests/files/FLog2_to_ACROS_33grid_V.1.00.cube
#title:FLog2_to_ACROS
#model:GFX ETERNA 55
#FUJIFILM Corporation
#Gamma:F-Log2 to ACROS
#Gamut:F-Gamut to ITU-R BT.709
#Version:1.00
LUT_3D_SIZE 33
0.000000 0.000000 0.000000
0.000000 0.000000 0.000000
0.000000 0.000000 0.000000
0.000977 0.000977 0.000977
0.003906 0.003906 0.003906
0.007813 0.007813 0.007813
0.012695 0.012695 0.012695
0.020508 0.020508 0.020508
0.026367 0.026367 0.026367
0.035156 0.035156 0.035156
0.048828 0.048828 0.048828
0.064453 0.064453 0.064453
0.083984 0.083984 0.083984
0.103516 0.103516 0.103516
0.127930 0.127930 0.127930
0.158203 0.158203 0.158203
0.192383 0.192383 0.192383
0.231445 0.231445 0.231445
0.275391 0.275391 0.275391
0.321289 0.321289 0.321289
0.350586 0.350586 0.350586
0.372070 0.372070 0.372070
0.395508 0.395508 0.395508
0.395508 0.395508 0.395508
0.395508 0.395508 0.395508
0.395508 0.395508 0.395508
0.395508 0.395508 0.395508
0.395508 0.395508 0.395508
0.395508 0.395508 0.395508
0.395508 0.395508 0.395508
0.395508 0.395508 0.395508
0.395508 0.395508 0.395508
0.395508 0.395508 0.395508
0.000000 0.000000 0.000000
0.000000 0.000000 0.000000
0.000000 0.000000 0.000000
0.000000 0.000000 0.000000
0.003906 0.003906 0.003906
0.007813 0.007813 0.007813
0.011719 0.011719 0.011719
0.019531 0.019531 0.019531
0.025391 0.025391 0.025391
0.033203 0.033203 0.033203
0.046875 0.046875 0.046875
0.062500 0.062500 0.062500
0.083984 0.083984 0.083984
0.108398 0.108398 0.108398
0.135742 0.135742 0.135742
0.168945 0.168945 0.168945
0.204102 0.204102 0.204102
0.245117 0.245117 0.245117
0.291992 0.291992 0.291992
0.336914 0.336914 0.336914
0.358398 0.358398 0.358398
0.384766 0.384766 0.384766
0.395508 0.395508 0.395508
0.395508 0.395508 0.395508
0.395508 0.395508 0.395508
0.395508 0.395508 0.395508
0.395508 0.395508 0.395508
0.395508 0.395508 0.395508
0.395508 0.395508 0.395508
0.395508 0.395508 0.395508
0.395508 0.395508 0.395508
0.395508 0.395508 0.395508
0.395508 0.395508 0.395508
0.000000 0.000000 0.000000
0.000000 0.000000 0.000000
0.000000 0.000000 0.000000
0.000000 0.000000 0.000000
0.002930 0.002930 0.002930
0.006836 0.006836 0.006836
0.010742 0.010742 0.010742
0.018555 0.018555 0.018555
0.025391 0.025391 0.025391
0.032227 0.032227 0.032227
0.044922 0.044922 0.044922
0.064453 0.064453 0.064453
0.087891 0.087891 0.087891
0.113281 0.113281 0.113281
0.141602 0.141602 0.141602
0.176758 0.176758 0.176758
0.215820 0.215820 0.215820
0.258789 0.258789 0.258789
0.308594 0.308594 0.308594
0.346680 0.346680 0.346680
0.367188 0.367188 0.367188
0.395508 0.395508 0.395508
0.395508 0.395508 0.395508
0.395508 0.395508 0.395508
0.395508 0.395508 0.395508
0.395508 0.395508 0.395508
0.395508 0.395508 0.395508
0.395508 0.395508 0.395508
0.395508 0.395508 0.395508
0.395508 0.395508 0.395508
0.395508 0.395508 0.395508
0.395508 0.395508 0.395508
0.395508 0.395508 0.395508
0.000000 0.000000 0.000000
0.000000 0.000000 0.000000
0.000000 0.000000 0.000000
0.000000 0.000000 0.000000
0.002930 0.002930 0.002930
0.005859 0.005859 0.005859
0.009766 0.009766 0.009766
0.017578 0.017578 0.017578
0.024414 0.024414 0.024414
0.033203 0.033203 0.033203
0.048828 0.048828 0.048828
0.067383 0.067383 0.067383
0.091797 0.091797 0.091797
0.118164 0.118164 0.118164
0.147461 0.147461 0.147461
0.185547 0.185547 0.185547
0.226563 0.226563 0.226563
0.274414 0.274414 0.274414
0.323242 0.323242 0.323242
0.352539 0.352539 0.352539
0.379883 0.379883 0.379883
0.395508 0.395508 0.395508
0.395508 0.395508 0.395508
0.395508 0.395508 0.395508
0.395508 0.395508 0.395508
0.395508 0.395508 0.395508
0.395508 0.395508 0.395508
0.395508 0.395508 0.395508
0.395508 0.395508 0.395508
0.395508 0.395508 0.395508
0.395508 0.395508 0.395508
0.395508 0.395508 0.395508
0.395508 0.395508 0.395508
0.005859 0.005859 0.005859
0.005859 0.005859 0.005859
0.005859 0.005859 0.005859
0.005859 0.005859 0.005859
0.008789 0.008789 0.008789
0.012695 0.012695 0.012695
0.016602 0.016602 0.016602
0.023438 0.023438 0.023438
0.030273 0.030273 0.030273
0.040039 0.040039 0.040039
0.055664 0.055664 0.055664
0.074219 0.074219 0.074219
0.099609 0.099609 0.099609
0.125977 0.125977 0.125977
0.157227 0.157227 0.157227
0.192383 0.192383 0.192383
0.236328 0.236328 0.236328
0.288086 0.288086 0.288086
0.336914 0.336914 0.336914
0.360352 0.360352 0.360352
0.381836 0.381836 0.381836
0.395508 0.395508 0.395508
0.395508 0.395508 0.395508
0.395508 0.395508 0.395508
0.395508 0.395508 0.395508
0.395508 0.395508 0.395508
0.395508 0.395508 0.395508
0.395508 0.395508 0.395508
0.395508 0.395508 0.395508
0.395508 0.395508 0.395508
0.395508 0.395508 0.395508
0.395508 0.395508 0.395508
0.395508 0.395508 0.395508
0.014648 0.014648 0.014648
0.014648 0.014648 0.014648
0.014648 0.014648 0.014648
0.013672 0.013672 0.013672
0.016602 0.016602 0.016602
0.020508 0.020508 0.020508
0.025391 0.025391 0.025391
0.031250 0.031250 0.031250
0.040039 0.040039 0.040039
0.049805 0.049805 0.049805
0.066406 0.066406 0.066406
0.087891 0.087891 0.087891
0.111328 0.111328 0.111328
0.140625 0.140625 0.140625
0.172852 0.172852 0.172852
0.211914 0.211914 0.211914
0.257813 0.257813 0.257813
0.305664 0.305664 0.305664
0.342773 0.342773 0.342773
0.356445 0.356445 0.356445
0.379883 0.379883 0.379883
0.395508 0.395508 0.395508
0.395508 0.395508 0.395508
0.395508 0.395508 0.395508
0.395508 0.395508 0.395508
0.395508 0.395508 0.395508
0.395508 0.395508 0.395508
0.395508 0.395508 0.395508
0.395508 0.395508 0.395508
0.395508 0.395508 0.395508
0.395508 0.395508 0.395508
0.395508 0.395508 0.395508
0.395508 0.395508 0.395508
0.025391 0.025391 0.025391
0.023438 0.023438 0.023438
0.023438 0.023438 0.023438
0.025391 0.025391 0.025391
0.026367 0.026367 0.026367
0.030273 0.030273 0.030273
0.037109 0.037109 0.037109
0.043945 0.043945 0.043945
0.050781 0.050781 0.050781
0.061523 0.061523 0.061523
0.080078 0.080078 0.080078
0.100586 0.100586 0.100586
0.126953 0.126953 0.126953
0.157227 0.157227 0.157227
0.192383 0.192383 0.192383
0.233398 0.233398 0.233398
0.272461 0.272461 0.272461
0.314453 0.314453 0.314453
0.352539 0.352539 0.352539
0.373047 0.373047 0.373047
0.393555 0.393555 0.393555
0.408203 0.408203 0.408203
0.405273 0.405273 0.405273
0.400391 0.400391 0.400391
0.395508 0.395508 0.395508
0.395508 0.395508 0.395508
0.395508 0.395508 0.395508
0.395508 0.395508 0.395508
0.395508 0.395508 0.395508
0.395508 0.395508 0.395508
0.395508 0.395508 0.395508
0.395508 0.395508 0.395508
0.395508 0.395508 0.395508
0.038086 0.038086 0.038086
0.039063 0.039063 0.039063
0.039063 0.039063 0.039063
0.039063 0.039063 0.039063
0.039063 0.039063 0.039063
0.044922 0.044922 0.044922
0.050781 0.050781 0.050781
0.059570 0.059570 0.059570
0.066406 0.066406 0.066406
0.077148 0.077148 0.077148
0.095703 0.095703 0.095703
0.120117 0.120117 0.120117
0.145508 0.145508 0.145508
0.175781 0.175781 0.175781
0.208984 0.208984 0.208984
0.244141 0.244141 0.244141
0.281250 0.281250 0.281250
0.325195 0.325195 0.325195
0.368164 0.368164 0.368164
0.393555 0.393555 0.393555
0.414063 0.414063 0.414063
0.433594 0.433594 0.433594
0.428711 0.428711 0.428711
0.424805 0.424805 0.424805
0.417969 0.417969 0.417969
0.414063 0.414063 0.414063
0.408203 0.408203 0.408203
0.404297 0.404297 0.404297
0.399414 0.399414 0.399414
0.395508 0.395508 0.395508
0.395508 0.395508 0.395508
0.395508 0.395508 0.395508
0.395508 0.395508 0.395508
0.055664 0.055664 0.055664
0.055664 0.055664 0.055664
0.058594 0.058594 0.058594
0.058594 0.058594 0.058594
0.058594 0.058594 0.058594
0.062500 0.062500 0.062500
0.068359 0.068359 0.068359
0.075195 0.075195 0.075195
0.083984 0.083984 0.083984
0.096680 0.096680 0.096680
0.115234 0.115234 0.115234
0.137695 0.137695 0.137695
0.165039 0.165039 0.165039
0.192383 0.192383 0.192383
0.223633 0.223633 0.223633
0.259766 0.259766 0.259766
0.299805 0.299805 0.299805
0.343750 0.343750 0.343750
0.388672 0.388672 0.388672
0.418945 0.418945 0.418945
0.438477 0.438477 0.438477
0.458984 0.458984 0.458984
0.456055 0.456055 0.456055
0.450195 0.450195 0.450195
0.444336 0.444336 0.444336
0.439453 0.439453 0.439453
0.433594 0.433594 0.433594
0.427734 0.427734 0.427734
0.421875 0.421875 0.421875
0.416992 0.416992 0.416992
0.411133 0.411133 0.411133
0.405273 0.405273 0.405273
0.400391 0.400391 0.400391
0.082031 0.082031 0.082031
0.083984 0.083984 0.083984
0.084961 0.084961 0.084961
0.084961 0.084961 0.084961
0.084961 0.084961 0.084961
0.086914 0.086914 0.086914
0.094727 0.094727 0.094727
0.101563 0.101563 0.101563
0.110352 0.110352 0.110352
0.124023 0.124023 0.124023
0.141602 0.141602 0.141602
0.164063 0.164063 0.164063
0.188477 0.188477 0.188477
0.215820 0.215820 0.215820
0.247070 0.247070 0.247070
0.285156 0.285156 0.285156
0.325195 0.325195 0.325195
0.370117 0.370117 0.370117
0.416016 0.416016 0.416016
0.447266 0.447266 0.447266
0.464844 0.464844 0.464844
0.484375 0.484375 0.484375
0.484375 0.484375 0.484375
0.479492 0.479492 0.479492
0.473633 0.473633 0.473633
0.466797 0.466797 0.466797
0.460938 0.460938 0.460938
0.455078 0.455078 0.455078
0.449219 0.449219 0.449219
0.442383 0.442383 0.442383
0.437500 0.437500 0.437500
0.430664 0.430664 0.430664
0.424805 0.424805 0.424805
0.125977 0.125977 0.125977
0.127930 0.127930 0.127930
0.129883 0.129883 0.129883
0.129883 0.129883 0.129883
0.129883 0.129883 0.129883
0.129883 0.129883 0.129883
0.136719 0.136719 0.136719
0.143555 0.143555 0.143555
0.152344 0.152344 0.152344
0.163086 0.163086 0.163086
0.179688 0.179688 0.179688
0.202148 0.202148 0.202148
0.224609 0.224609 0.224609
0.251953 0.251953 0.251953
0.282227 0.282227 0.282227
0.319336 0.319336 0.319336
0.359375 0.359375 0.359375
0.403320 0.403320 0.403320
0.447266 0.447266 0.447266
0.480469 0.480469 0.480469
0.496094 0.496094 0.496094
0.510742 0.510742 0.510742
0.514648 0.514648 0.514648
0.508789 0.508789 0.508789
0.502930 0.502930 0.502930
0.497070 0.497070 0.497070
0.491211 0.491211 0.491211
0.484375 0.484375 0.484375
0.477539 0.477539 0.477539
0.471680 0.471680 0.471680
0.464844 0.464844 0.464844
0.458008 0.458008 0.458008
0.451172 0.451172 0.451172
0.187500 0.187500 0.187500
0.189453 0.189453 0.189453
0.192383 0.192383 0.192383
0.193359 0.193359 0.193359
0.196289 0.196289 0.196289
0.196289 0.196289 0.196289
0.193359 0.193359 0.193359
0.197266 0.197266 0.197266
0.204102 0.204102 0.204102
0.215820 0.215820 0.215820
0.229492 0.229492 0.229492
0.250000 0.250000 0.250000
0.271484 0.271484 0.271484
0.295898 0.295898 0.295898
0.325195 0.325195 0.325195
0.359375 0.359375 0.359375
0.397461 0.397461 0.397461
0.439453 0.439453 0.439453
0.481445 0.481445 0.481445
0.515625 0.515625 0.515625
0.528320 0.528320 0.528320
0.539063 0.539063 0.539063
0.545898 0.545898 0.545898
0.539063 0.539063 0.539063
0.533203 0.533203 0.533203
0.527344 0.527344 0.527344
0.521484 0.521484 0.521484
0.514648 0.514648 0.514648
0.507813 0.507813 0.507813
0.500977 0.500977 0.500977
0.494141 0.494141 0.494141
0.487305 0.487305 0.487305
0.479492 0.479492 0.479492
0.260742 0.260742 0.260742
0.265625 0.265625 0.265625
0.268555 0.268555 0.268555
0.271484 0.271484 0.271484
0.266602 0.266602 0.266602
0.260742 0.260742 0.260742
0.253906 0.253906 0.253906
0.256836 0.256836 0.256836
0.261719 0.261719 0.261719
0.273438 0.273438 0.273438
0.288086 0.288086 0.288086
0.304688 0.304688 0.304688
0.326172 0.326172 0.326172
0.348633 0.348633 0.348633
0.376953 0.376953 0.376953
0.407227 0.407227 0.407227
0.441406 0.441406 0.441406
0.479492 0.479492 0.479492
0.517578 0.517578 0.517578
0.550781 0.550781 0.550781
0.563477 0.563477 0.563477
0.572266 0.572266 0.572266
0.578125 0.578125 0.578125
0.572266 0.572266 0.572266
0.565430 0.565430 0.565430
0.559570 0.559570 0.559570
0.552734 0.552734 0.552734
0.545898 0.545898 0.545898
0.538086 0.538086 0.538086
0.531250 0.531250 0.531250
0.525391 0.525391 0.525391
0.519531 0.519531 0.519531
0.512695 0.512695 0.512695
0.352539 0.352539 0.352539
0.360352 0.360352 0.360352
0.356445 0.356445 0.356445
0.348633 0.348633 0.348633
0.341797 0.341797 0.341797
0.333008 0.333008 0.333008
0.326172 0.326172 0.326172
0.325195 0.325195 0.325195
0.330078 0.330078 0.330078
0.339844 0.339844 0.339844
0.352539 0.352539 0.352539
0.368164 0.368164 0.368164
0.386719 0.386719 0.386719
0.406250 0.406250 0.406250
0.431641 0.431641 0.431641
0.458984 0.458984 0.458984
0.489258 0.489258 0.489258
0.523438 0.523438 0.523438
0.557617 0.557617 0.557617
0.588867 0.588867 0.588867
0.602539 0.602539 0.602539
0.608398 0.608398 0.608398
0.612305 0.612305 0.612305
0.606445 0.606445 0.606445
0.599609 0.599609 0.599609
0.592773 0.592773 0.592773
0.585938 0.585938 0.585938
0.579102 0.579102 0.579102
0.571289 0.571289 0.571289
0.565430 0.565430 0.565430
0.557617 0.557617 0.557617
0.552734 0.552734 0.552734
0.545898 0.545898 0.545898
0.458984 0.458984 0.458984
0.451172 0.451172 0.451172
0.445313 0.445313 0.445313
0.437500 0.437500 0.437500
0.428711 0.428711 0.428711
0.419922 0.419922 0.419922
0.410156 0.410156 0.410156
0.403320 0.403320 0.403320
0.409180 0.409180 0.409180
0.416992 0.416992 0.416992
0.425781 0.425781 0.425781
0.439453 0.439453 0.439453
0.454102 0.454102 0.454102
0.471680 0.471680 0.471680
0.492188 0.492188 0.492188
0.516602 0.516602 0.516602
0.543945 0.543945 0.543945
0.573242 0.573242 0.573242
0.602539 0.602539 0.602539
0.629883 0.629883 0.629883
0.644531 0.644531 0.644531
0.648438 0.648438 0.648438
0.649414 0.649414 0.649414
0.644531 0.644531 0.644531
0.636719 0.636719 0.636719
0.628906 0.628906 0.628906
0.621094 0.621094 0.621094
0.614258 0.614258 0.614258
0.607422 0.607422 0.607422
0.601563 0.601563 0.601563
0.594727 0.594727 0.594727
0.587891 0.587891 0.587891
0.581055 0.581055 0.581055
0.550781 0.550781 0.550781
0.543945 0.543945 0.543945
0.537109 0.537109 0.537109
0.528320 0.528320 0.528320
0.521484 0.521484 0.521484
0.512695 0.512695 0.512695
0.502930 0.502930 0.502930
0.494141 0.494141 0.494141
0.495117 0.495117 0.495117
0.500000 0.500000 0.500000
0.507813 0.507813 0.507813
0.517578 0.517578 0.517578
0.529297 0.529297 0.529297
0.541992 0.541992 0.541992
0.558594 0.558594 0.558594
0.579102 0.579102 0.579102
0.601563 0.601563 0.601563
0.625000 0.625000 0.625000
0.651367 0.651367 0.651367
0.674805 0.674805 0.674805
0.688477 0.688477 0.688477
0.690430 0.690430 0.690430
0.688477 0.688477 0.688477
0.681641 0.681641 0.681641
0.673828 0.673828 0.673828
0.666992 0.666992 0.666992
0.660156 0.660156 0.660156
0.653320 0.653320 0.653320
0.646484 0.646484 0.646484
0.638672 0.638672 0.638672
0.631836 0.631836 0.631836
0.625000 0.625000 0.625000
0.618164 0.618164 0.618164
0.638672 0.638672 0.638672
0.631836 0.631836 0.631836
0.625977 0.625977 0.625977
0.618164 0.618164 0.618164
0.611328 0.611328 0.611328
0.603516 0.603516 0.603516
0.593750 0.593750 0.593750
0.585938 0.585938 0.585938
0.580078 0.580078 0.580078
0.583008 0.583008 0.583008
0.587891 0.587891 0.587891
0.594727 0.594727 0.594727
0.602539 0.602539 0.602539
0.613281 0.613281 0.613281
0.626953 0.626953 0.626953
0.643555 0.643555 0.643555
0.661133 0.661133 0.661133
0.680664 0.680664 0.680664
0.701172 0.701172 0.701172
0.721680 0.721680 0.721680
0.735352 0.735352 0.735352
0.734375 0.734375 0.734375
0.729492 0.729492 0.729492
0.719727 0.719727 0.719727
0.711914 0.711914 0.711914
0.705078 0.705078 0.705078
0.698242 0.698242 0.698242
0.691406 0.691406 0.691406
0.684570 0.684570 0.684570
0.677734 0.677734 0.677734
0.670898 0.670898 0.670898
0.664063 0.664063 0.664063
0.656250 0.656250 0.656250
0.715820 0.715820 0.715820
0.709961 0.709961 0.709961
0.705078 0.705078 0.705078
0.699219 0.699219 0.699219
0.692383 0.692383 0.692383
0.685547 0.685547 0.685547
0.677734 0.677734 0.677734
0.669922 0.669922 0.669922
0.661133 0.661133 0.661133
0.661133 0.661133 0.661133
0.663086 0.663086 0.663086
0.667969 0.667969 0.667969
0.673828 0.673828 0.673828
0.682617 0.682617 0.682617
0.693359 0.693359 0.693359
0.705078 0.705078 0.705078
0.719727 0.719727 0.719727
0.734375 0.734375 0.734375
0.752930 0.752930 0.752930
0.768555 0.768555 0.768555
0.781250 0.781250 0.781250
0.778320 0.778320 0.778320
0.770508 0.770508 0.770508
0.758789 0.758789 0.758789
0.749023 0.749023 0.749023
0.742188 0.742188 0.742188
0.735352 0.735352 0.735352
0.728516 0.728516 0.728516
0.721680 0.721680 0.721680
0.714844 0.714844 0.714844
0.708008 0.708008 0.708008
0.701172 0.701172 0.701172
0.695313 0.695313 0.695313
0.773438 0.773438 0.773438
0.770508 0.770508 0.770508
0.766602 0.766602 0.766602
0.762695 0.762695 0.762695
0.758789 0.758789 0.758789
0.753906 0.753906 0.753906
0.747070 0.747070 0.747070
0.741211 0.741211 0.741211
0.734375 0.734375 0.734375
0.729492 0.729492 0.729492
0.731445 0.731445 0.731445
0.733398 0.733398 0.733398
0.738281 0.738281 0.738281
0.746094 0.746094 0.746094
0.754883 0.754883 0.754883
0.763672 0.763672 0.763672
0.775391 0.775391 0.775391
0.789063 0.789063 0.789063
0.802734 0.802734 0.802734
0.816406 0.816406 0.816406
0.826172 0.826172 0.826172
0.822266 0.822266 0.822266
0.812500 0.812500 0.812500
0.799805 0.799805 0.799805
0.785156 0.785156 0.785156
0.778320 0.778320 0.778320
0.772461 0.772461 0.772461
0.765625 0.765625 0.765625
0.758789 0.758789 0.758789
0.751953 0.751953 0.751953
0.745117 0.745117 0.745117
0.738281 0.738281 0.738281
0.732422 0.732422 0.732422
0.801758 0.801758 0.801758
0.799805 0.799805 0.799805
0.798828 0.798828 0.798828
0.797852 0.797852 0.797852
0.794922 0.794922 0.794922
0.792969 0.792969 0.792969
0.791016 0.791016 0.791016
0.787109 0.787109 0.787109
0.783203 0.783203 0.783203
0.778320 0.778320 0.778320
0.781250 0.781250 0.781250
0.784180 0.784180 0.784180
0.789063 0.789063 0.789063
0.795898 0.795898 0.795898
0.803711 0.803711 0.803711
0.812500 0.812500 0.812500
0.822266 0.822266 0.822266
0.833008 0.833008 0.833008
0.843750 0.843750 0.843750
0.854492 0.854492 0.854492
0.862305 0.862305 0.862305
0.862305 0.862305 0.862305
0.851563 0.851563 0.851563
0.839844 0.839844 0.839844
0.825195 0.825195 0.825195
0.814453 0.814453 0.814453
0.808594 0.808594 0.808594
0.801758 0.801758 0.801758
0.794922 0.794922 0.794922
0.788086 0.788086 0.788086
0.782227 0.782227 0.782227
0.775391 0.775391 0.775391
0.768555 0.768555 0.768555
0.817383 0.817383 0.817383
0.816406 0.816406 0.816406
0.815430 0.815430 0.815430
0.814453 0.814453 0.814453
0.812500 0.812500 0.812500
0.811523 0.811523 0.811523
0.809570 0.809570 0.809570
0.807617 0.807617 0.807617
0.805664 0.805664 0.805664
0.803711 0.803711 0.803711
0.804688 0.804688 0.804688
0.809570 0.809570 0.809570
0.815430 0.815430 0.815430
0.824219 0.824219 0.824219
0.832031 0.832031 0.832031
0.840820 0.840820 0.840820
0.849609 0.849609 0.849609
0.860352 0.860352 0.860352
0.871094 0.871094 0.871094
0.880859 0.880859 0.880859
0.889648 0.889648 0.889648
0.894531 0.894531 0.894531
0.886719 0.886719 0.886719
0.875000 0.875000 0.875000
0.861328 0.861328 0.861328
0.846680 0.846680 0.846680
0.841797 0.841797 0.841797
0.835938 0.835938 0.835938
0.830078 0.830078 0.830078
0.823242 0.823242 0.823242
0.817383 0.817383 0.817383
0.811523 0.811523 0.811523
0.804688 0.804688 0.804688
0.829102 0.829102 0.829102
0.828125 0.828125 0.828125
0.827148 0.827148 0.827148
0.826172 0.826172 0.826172
0.825195 0.825195 0.825195
0.824219 0.824219 0.824219
0.823242 0.823242 0.823242
0.822266 0.822266 0.822266
0.820313 0.820313 0.820313
0.818359 0.818359 0.818359
0.817383 0.817383 0.817383
0.821289 0.821289 0.821289
0.826172 0.826172 0.826172
0.832031 0.832031 0.832031
0.839844 0.839844 0.839844
0.848633 0.848633 0.848633
0.860352 0.860352 0.860352
0.872070 0.872070 0.872070
0.885742 0.885742 0.885742
0.898438 0.898438 0.898438
0.908203 0.908203 0.908203
0.916016 0.916016 0.916016
0.915039 0.915039 0.915039
0.906250 0.906250 0.906250
0.893555 0.893555 0.893555
0.877930 0.877930 0.877930
0.871094 0.871094 0.871094
0.865234 0.865234 0.865234
0.860352 0.860352 0.860352
0.855469 0.855469 0.855469
0.849609 0.849609 0.849609
0.843750 0.843750 0.843750
0.837891 0.837891 0.837891
0.833984 0.833984 0.833984
0.833984 0.833984 0.833984
0.833984 0.833984 0.833984
0.833984 0.833984 0.833984
0.833984 0.833984 0.833984
0.833984 0.833984 0.833984
0.833984 0.833984 0.833984
0.832031 0.832031 0.832031
0.831055 0.831055 0.831055
0.830078 0.830078 0.830078
0.829102 0.829102 0.829102
0.829102 0.829102 0.829102
0.833008 0.833008 0.833008
0.837891 0.837891 0.837891
0.843750 0.843750 0.843750
0.851563 0.851563 0.851563
0.861328 0.861328 0.861328
0.872070 0.872070 0.872070
0.883789 0.883789 0.883789
0.897461 0.897461 0.897461
0.911133 0.911133 0.911133
0.923828 0.923828 0.923828
0.932617 0.932617 0.932617
0.928711 0.928711 0.928711
0.918945 0.918945 0.918945
0.906250 0.906250 0.906250
0.895508 0.895508 0.895508
0.891602 0.891602 0.891602
0.886719 0.886719 0.886719
0.882813 0.882813 0.882813
0.877930 0.877930 0.877930
0.873047 0.873047 0.873047
0.868164 0.868164 0.868164
0.833984 0.833984 0.833984
0.833984 0.833984 0.833984
0.833984 0.833984 0.833984
0.833984 0.833984 0.833984
0.833984 0.833984 0.833984
0.833984 0.833984 0.833984
0.833984 0.833984 0.833984
0.833984 0.833984 0.833984
0.833984 0.833984 0.833984
0.833984 0.833984 0.833984
0.833984 0.833984 0.833984
0.833984 0.833984 0.833984
0.838867 0.838867 0.838867
0.842773 0.842773 0.842773
0.847656 0.847656 0.847656
0.854492 0.854492 0.854492
0.861328 0.861328 0.861328
0.871094 0.871094 0.871094
0.880859 0.880859 0.880859
0.893555 0.893555 0.893555
0.906250 0.906250 0.906250
0.918945 0.918945 0.918945
0.931641 0.931641 0.931641
0.939453 0.939453 0.939453
0.937500 0.937500 0.937500
0.928711 0.928711 0.928711
0.917969 0.917969 0.917969
0.914063 0.914063 0.914063
0.910156 0.910156 0.910156
0.906250 0.906250 0.906250
0.902344 0.902344 0.902344
0.897461 0.897461 0.897461
0.893555 0.893555 0.893555
0.833984 0.833984 0.833984
0.833984 0.833984 0.833984
0.833984 0.833984 0.833984
0.833984 0.833984 0.833984
0.833984 0.833984 0.833984
0.833984 0.833984 0.833984
0.833984 0.833984 0.833984
0.833984 0.833984 0.833984
0.833984 0.833984 0.833984
0.833984 0.833984 0.833984
0.833984 0.833984 0.833984
0.833984 0.833984 0.833984
0.836914 0.836914 0.836914
0.841797 0.841797 0.841797
0.846680 0.846680 0.846680
0.853516 0.853516 0.853516
0.861328 0.861328 0.861328
0.870117 0.870117 0.870117
0.878906 0.878906 0.878906
0.889648 0.889648 0.889648
0.901367 0.901367 0.901367
0.914063 0.914063 0.914063
0.926758 0.926758 0.926758
0.937500 0.937500 0.937500
0.941406 0.941406 0.941406
0.939453 0.939453 0.939453
0.936523 0.936523 0.936523
0.931641 0.931641 0.931641
0.928711 0.928711 0.928711
0.925781 0.925781 0.925781
0.922852 0.922852 0.922852
0.918945 0.918945 0.918945
0.916016 0.916016 0.916016
0.833984 0.833984 0.833984
0.833984 0.833984 0.833984
0.833984 0.833984 0.833984
0.833984 0.833984 0.833984
0.833984 0.833984 0.833984
0.833984 0.833984 0.833984
0.833984 0.833984 0.833984
0.833984 0.833984 0.833984
0.833984 0.833984 0.833984
0.833984 0.833984 0.833984
0.833984 0.833984 0.833984
0.833984 0.833984 0.833984
0.834961 0.834961 0.834961
0.839844 0.839844 0.839844
0.844727 0.844727 0.844727
0.850586 0.850586 0.850586
0.858398 0.858398 0.858398
0.866211 0.866211 0.866211
0.875000 0.875000 0.875000
0.885742 0.885742 0.885742
0.897461 0.897461 0.897461
0.909180 0.909180 0.909180
0.920898 0.920898 0.920898
0.932617 0.932617 0.932617
0.942383 0.942383 0.942383
0.943359 0.943359 0.943359
0.941406 0.941406 0.941406
0.938477 0.938477 0.938477
0.938477 0.938477 0.938477
0.937500 0.937500 0.937500
0.936523 0.936523 0.936523
0.935547 0.935547 0.935547
0.932617 0.932617 0.932617
0.833984 0.833984 0.833984
0.833984 0.833984 0.833984
0.833984 0.833984 0.833984
0.833984 0.833984 0.833984
0.833984 0.833984 0.833984
0.833984 0.833984 0.833984
0.833984 0.833984 0.833984
0.833984 0.833984 0.833984
0.833984 0.833984 0.833984
0.833984 0.833984 0.833984
0.833984 0.833984 0.833984
0.833984 0.833984 0.833984
0.833984 0.833984 0.833984
0.837891 0.837891 0.837891
0.842773 0.842773 0.842773
0.848633 0.848633 0.848633
0.855469 0.855469 0.855469
0.863281 0.863281 0.863281
0.872070 0.872070 0.872070
0.881836 0.881836 0.881836
0.892578 0.892578 0.892578
0.904297 0.904297 0.904297
0.916016 0.916016 0.916016
0.928711 0.928711 0.928711
0.939453 0.939453 0.939453
