tests/files/FLog2C_to_ACROS_33grid_V.1.00.cube
#title:FLog2C_to_ACROS
#model:GFX ETERNA 55
#FUJIFILM Corporation
#Gamma:F-Log2C to ACROS
#Gamut:F-GamutC to ITU-R BT.709
#Version:1.00
LUT_3D_SIZE 5
0.000000 0.000000 0.000000
0.159180 0.159180 0.159180
0.558594 0.558594 0.558594
0.558594 0.558594 0.558594
0.558594 0.558594 0.558594
0.136719 0.136719 0.136719
0.089844 0.089844 0.089844
0.506836 0.506836 0.506836
0.558594 0.558594 0.558594
0.558594 0.558594 0.558594
0.657227 0.657227 0.657227
0.511719 0.511719 0.511719
0.628906 0.628906 0.628906
0.697266 0.697266 0.697266
0.634766 0.634766 0.634766
0.702148 0.702148 0.702148
0.701172 0.701172 0.701172
0.758789 0.758789 0.758789
0.878906 0.878906 0.878906
0.833008 0.833008 0.833008
0.745117 0.745117 0.745117
0.702148 0.702148 0.702148
0.709961 0.709961 0.709961
0.844727 0.844727 0.844727
0.884766 0.884766 0.884766
0.008789 0.008789 0.008789
0.130859 0.130859 0.130859
0.558594 0.558594 0.558594
0.558594 0.558594 0.558594
0.558594 0.558594 0.558594
0.217773 0.217773 0.217773
0.107422 0.107422 0.107422
0.491211 0.491211 0.491211
0.558594 0.558594 0.558594
0.558594 0.558594 0.558594
0.735352 0.735352 0.735352
0.595703 0.595703 0.595703
0.654297 0.654297 0.654297
0.719727 0.719727 0.719727
0.649414 0.649414 0.649414
0.773438 0.773438 0.773438
0.734375 0.734375 0.734375
0.748047 0.748047 0.748047
0.888672 0.888672 0.888672
0.846680 0.846680 0.846680
0.796875 0.796875 0.796875
0.779297 0.779297 0.779297
0.749023 0.749023 0.749023
0.833008 0.833008 0.833008
0.884766 0.884766 0.884766
0.058594 0.058594 0.058594
0.147461 0.147461 0.147461
0.564453 0.564453 0.564453
0.559570 0.559570 0.559570
0.558594 0.558594 0.558594
0.301758 0.301758 0.301758
0.165039 0.165039 0.165039
0.485352 0.485352 0.485352
0.565430 0.565430 0.565430
0.561523 0.561523 0.561523
0.746094 0.746094 0.746094
0.671875 0.671875 0.671875
0.724609 0.724609 0.724609
0.753906 0.753906 0.753906
0.678711 0.678711 0.678711
0.797852 0.797852 0.797852
0.793945 0.793945 0.793945
0.811523 0.811523 0.811523
0.951172 0.951172 0.951172
0.896484 0.896484 0.896484
0.797852 0.797852 0.797852
0.797852 0.797852 0.797852
0.796875 0.796875 0.796875
0.895508 0.895508 0.895508
0.933594 0.933594 0.933594
0.119141 0.119141 0.119141
0.231445 0.231445 0.231445
0.536133 0.536133 0.536133
0.560547 0.560547 0.560547
0.564453 0.564453 0.564453
0.136719 0.136719 0.136719
0.156250 0.156250 0.156250
0.397461 0.397461 0.397461
0.526367 0.526367 0.526367
0.557617 0.557617 0.557617
0.696289 0.696289 0.696289
0.565430 0.565430 0.565430
0.667969 0.667969 0.667969
0.738281 0.738281 0.738281
0.683594 0.683594 0.683594
0.797852 0.797852 0.797852
0.797852 0.797852 0.797852
0.822266 0.822266 0.822266
0.959961 0.959961 0.959961
0.914063 0.914063 0.914063
0.797852 0.797852 0.797852
0.797852 0.797852 0.797852
0.797852 0.797852 0.797852
0.899414 0.899414 0.899414
0.989258 0.989258 0.989258
0.122070 0.122070 0.122070
0.232422 0.232422 0.232422
0.412109 0.412109 0.412109
0.470703 0.470703 0.470703
0.536133 0.536133 0.536133
0.137695 0.137695 0.137695
0.139648 0.139648 0.139648
0.366211 0.366211 0.366211
0.413086 0.413086 0.413086
0.454102 0.454102 0.454102
0.724609 0.724609 0.724609
0.584961 0.584961 0.584961
0.502930 0.502930 0.502930
0.530273 0.530273 0.530273
0.552734 0.552734 0.552734
0.797852 0.797852 0.797852
0.797852 0.797852 0.797852
0.815430 0.815430 0.815430
0.922852 0.922852 0.922852
0.853516 0.853516 0.853516
0.797852 0.797852 0.797852
0.797852 0.797852 0.797852
0.797852 0.797852 0.797852
0.887695 0.887695 0.887695
1.000000 1.000000 1.000000
