tests/files/FLog2C_to_ACROS_65grid_V.1.00.cube
#title:FLog2C_to_ACROS
#model:GFX ETERNA 55
#FUJIFILM Corporation
#Gamma:F-Log2C to ACROS
#Gamut:F-GamutC to ITU-R BT.709
#Version:1.00
LUT_3D_SIZE 65
0.000000 0.000000 0.000000
0.000000 0.000000 0.000000
0.000000 0.000000 0.000000
0.000000 0.000000 0.000000
0.002930 0.002930 0.002930
0.006836 0.006836 0.006836
0.011719 0.011719 0.011719
0.016602 0.016602 0.016602
0.024414 0.024414 0.024414
0.032227 0.032227 0.032227
0.041016 0.041016 0.041016
0.053711 0.053711 0.053711
0.069336 0.069336 0.069336
0.090820 0.090820 0.090820
0.111328 0.111328 0.111328
0.133789 0.133789 0.133789
0.159180 0.159180 0.159180
0.186523 0.186523 0.186523
0.216797 0.216797 0.216797
0.249023 0.249023 0.249023
0.284180 0.284180 0.284180
0.322266 0.322266 0.322266
0.366211 0.366211 0.366211
0.410156 0.410156 0.410156
0.448242 0.448242 0.448242
0.481445 0.481445 0.481445
0.513672 0.513672 0.513672
0.543945 0.543945 0.543945
0.558594 0.558594 0.558594
0.558594 0.558594 0.558594
0.558594 0.558594 0.558594
0.558594 0.558594 0.558594
0.558594 0.558594 0.558594
0.558594 0.558594 0.558594
0.558594 0.558594 0.558594
0.558594 0.558594 0.558594
0.558594 0.558594 0.558594
0.558594 0.558594 0.558594
0.558594 0.558594 0.558594
0.558594 0.558594 0.558594
0.558594 0.558594 0.558594
0.558594 0.558594 0.558594
0.558594 0.558594 0.558594
0.558594 0.558594 0.558594
0.558594 0.558594 0.558594
0.558594 0.558594 0.558594
0.558594 0.558594 0.558594
0.558594 0.558594 0.558594
0.558594 0.558594 0.558594
0.558594 0.558594 0.558594
0.558594 0.558594 0.558594
0.558594 0.558594 0.558594
0.558594 0.558594 0.558594
0.558594 0.558594 0.558594
0.558594 0.558594 0.558594
0.558594 0.558594 0.558594
0.558594 0.558594 0.558594
0.558594 0.558594 0.558594
0.558594 0.558594 0.558594
0.558594 0.558594 0.558594
0.558594 0.558594 0.558594
0.558594 0.558594 0.558594
0.558594 0.558594 0.558594
0.558594 0.558594 0.558594
0.558594 0.558594 0.558594
0.000000 0.000000 0.000000
0.000000 0.000000 0.000000
0.000000 0.000000 0.000000
0.000000 0.000000 0.000000
0.000977 0.000977 0.000977
0.004883 0.004883 0.004883
0.008789 0.008789 0.008789
0.013672 0.013672 0.013672
0.021484 0.021484 0.021484
0.027344 0.027344 0.027344
0.037109 0.037109 0.037109
0.048828 0.048828 0.048828
0.064453 0.064453 0.064453
0.081055 0.081055 0.081055
0.101563 0.101563 0.101563
0.124023 0.124023 0.124023
0.148438 0.148438 0.148438
0.174805 0.174805 0.174805
0.203125 0.203125 0.203125
0.234375 0.234375 0.234375
0.269531 0.269531 0.269531
0.305664 0.305664 0.305664
0.346680 0.346680 0.346680
0.392578 0.392578 0.392578
0.433594 0.433594 0.433594
0.466797 0.466797 0.466797
0.499023 0.499023 0.499023
0.531250 0.531250 0.531250
0.558594 0.558594 0.558594
0.558594 0.558594 0.558594
0.558594 0.558594 0.558594
0.558594 0.558594 0.558594
0.558594 0.558594 0.558594
0.558594 0.558594 0.558594
0.558594 0.558594 0.558594
0.558594 0.558594 0.558594
0.558594 0.558594 0.558594
0.558594 0.558594 0.558594
0.558594 0.558594 0.558594
0.558594 0.558594 0.558594
0.558594 0.558594 0.558594
0.558594 0.558594 0.558594
0.558594 0.558594 0.558594
0.558594 0.558594 0.558594
0.558594 0.558594 0.558594
0.558594 0.558594 0.558594
0.558594 0.558594 0.558594
0.558594 0.558594 0.558594
0.558594 0.558594 0.558594
0.558594 0.558594 0.558594
0.558594 0.558594 0.558594
0.558594 0.558594 0.558594
0.558594 0.558594 0.558594
0.558594 0.558594 0.558594
0.558594 0.558594 0.558594
0.558594 0.558594 0.558594
0.558594 0.558594 0.558594
0.558594 0.558594 0.558594
0.558594 0.558594 0.558594
0.558594 0.558594 0.558594
0.558594 0.558594 0.558594
0.558594 0.558594 0.558594
0.558594 0.558594 0.558594
0.558594 0.558594 0.558594
0.558594 0.558594 0.558594
0.000000 0.000000 0.000000
0.000000 0.000000 0.000000
0.000000 0.000000 0.000000
0.000000 0.000000 0.000000
0.000977 0.000977 0.000977
0.002930 0.002930 0.002930
0.007813 0.007813 0.007813
0.011719 0.011719 0.011719
0.017578 0.017578 0.017578
0.024414 0.024414 0.024414
0.033203 0.033203 0.033203
0.042969 0.042969 0.042969
0.056641 0.056641 0.056641
0.073242 0.073242 0.073242
0.093750 0.093750 0.093750
0.114258 0.114258 0.114258
0.137695 0.137695 0.137695
0.162109 0.162109 0.162109
0.190430 0.190430 0.190430
0.221680 0.221680 0.221680
0.254883 0.254883 0.254883
0.289063 0.289063 0.289063
0.329102 0.329102 0.329102
0.373047 0.373047 0.373047
0.416992 0.416992 0.416992
0.454102 0.454102 0.454102
0.485352 0.485352 0.485352
0.517578 0.517578 0.517578
0.549805 0.549805 0.549805
0.558594 0.558594 0.558594
0.558594 0.558594 0.558594
0.558594 0.558594 0.558594
0.558594 0.558594 0.558594
0.558594 0.558594 0.558594
0.558594 0.558594 0.558594
0.558594 0.558594 0.558594
0.558594 0.558594 0.558594
0.558594 0.558594 0.558594
0.558594 0.558594 0.558594
0.558594 0.558594 0.558594
0.558594 0.558594 0.558594
0.558594 0.558594 0.558594
0.558594 0.558594 0.558594
0.558594 0.558594 0.558594
0.558594 0.558594 0.558594
0.558594 0.558594 0.558594
0.558594 0.558594 0.558594
0.558594 0.558594 0.558594
0.558594 0.558594 0.558594
0.558594 0.558594 0.558594
0.558594 0.558594 0.558594
0.558594 0.558594 0.558594
0.558594 0.558594 0.558594
0.558594 0.558594 0.558594
0.558594 0.558594 0.558594
0.558594 0.558594 0.558594
0.558594 0.558594 0.558594
0.558594 0.558594 0.558594
0.558594 0.558594 0.558594
0.558594 0.558594 0.558594
0.558594 0.558594 0.558594
0.558594 0.558594 0.558594
0.558594 0.558594 0.558594
0.558594 0.558594 0.558594
0.558594 0.558594 0.558594
0.000000 0.000000 0.000000
0.000000 0.000000 0.000000
0.000000 0.000000 0.000000
0.000000 0.000000 0.000000
0.000000 0.000000 0.000000
0.001953 0.001953 0.001953
0.004883 0.004883 0.004883
0.009766 0.009766 0.009766
0.014648 0.014648 0.014648
0.021484 0.021484 0.021484
0.029297 0.029297 0.029297
0.038086 0.038086 0.038086
0.050781 0.050781 0.050781
0.066406 0.066406 0.066406
0.085938 0.085938 0.085938
0.104492 0.104492 0.104492
0.126953 0.126953 0.126953
0.151367 0.151367 0.151367
0.180664 0.180664 0.180664
0.208984 0.208984 0.208984
0.240234 0.240234 0.240234
0.274414 0.274414 0.274414
0.310547 0.310547 0.310547
0.354492 0.354492 0.354492
0.398438 0.398438 0.398438
0.440430 0.440430 0.440430
0.472656 0.472656 0.472656
0.504883 0.504883 0.504883
0.536133 0.536133 0.536133
0.558594 0.558594 0.558594
0.558594 0.558594 0.558594
0.558594 0.558594 0.558594
0.558594 0.558594 0.558594
0.558594 0.558594 0.558594
0.558594 0.558594 0.558594
0.558594 0.558594 0.558594
0.558594 0.558594 0.558594
0.558594 0.558594 0.558594
0.558594 0.558594 0.558594
0.558594 0.558594 0.558594
0.558594 0.558594 0.558594
0.558594 0.558594 0.558594
0.558594 0.558594 0.558594
0.558594 0.558594 0.558594
0.558594 0.558594 0.558594
0.558594 0.558594 0.558594
0.558594 0.558594 0.558594
0.558594 0.558594 0.558594
0.558594 0.558594 0.558594
0.558594 0.558594 0.558594
0.558594 0.558594 0.558594
0.558594 0.558594 0.558594
0.558594 0.558594 0.558594
0.558594 0.558594 0.558594
0.558594 0.558594 0.558594
0.558594 0.558594 0.558594
0.558594 0.558594 0.558594
0.558594 0.558594 0.558594
0.558594 0.558594 0.558594
0.558594 0.558594 0.558594
0.558594 0.558594 0.558594
0.558594 0.558594 0.558594
0.558594 0.558594 0.558594
0.558594 0.558594 0.558594
0.558594 0.558594 0.558594
0.000000 0.000000 0.000000
0.000000 0.000000 0.000000
0.000000 0.000000 0.000000
0.000000 0.000000 0.000000
0.000000 0.000000 0.000000
0.000977 0.000977 0.000977
0.003906 0.003906 0.003906
0.008789 0.008789 0.008789
0.012695 0.012695 0.012695
0.019531 0.019531 0.019531
0.026367 0.026367 0.026367
0.035156 0.035156 0.035156
0.044922 0.044922 0.044922
0.060547 0.060547 0.060547
0.077148 0.077148 0.077148
0.096680 0.096680 0.096680
0.117188 0.117188 0.117188
0.141602 0.141602 0.141602
0.166016 0.166016 0.166016
0.196289 0.196289 0.196289
0.227539 0.227539 0.227539
0.259766 0.259766 0.259766
0.294922 0.294922 0.294922
0.335938 0.335938 0.335938
0.379883 0.379883 0.379883
0.423828 0.423828 0.423828
0.458984 0.458984 0.458984
0.491211 0.491211 0.491211
0.522461 0.522461 0.522461
0.553711 0.553711 0.553711
0.558594 0.558594 0.558594
0.558594 0.558594 0.558594
0.558594 0.558594 0.558594
0.558594 0.558594 0.558594
0.558594 0.558594 0.558594
0.558594 0.558594 0.558594
0.558594 0.558594 0.558594
0.558594 0.558594 0.558594
0.558594 0.558594 0.558594
0.558594 0.558594 0.558594
0.558594 0.558594 0.558594
0.558594 0.558594 0.558594
0.558594 0.558594 0.558594
0.558594 0.558594 0.558594
0.558594 0.558594 0.558594
0.558594 0.558594 0.558594
0.558594 0.558594 0.558594
0.558594 0.558594 0.558594
0.558594 0.558594 0.558594
0.558594 0.558594 0.558594
0.558594 0.558594 0.558594
0.558594 0.558594 0.558594
0.558594 0.558594 0.558594
0.558594 0.558594 0.558594
0.558594 0.558594 0.558594
0.558594 0.558594 0.558594
0.558594 0.558594 0.558594
0.558594 0.558594 0.558594
0.558594 0.558594 0.558594
0.558594 0.558594 0.558594
0.558594 0.558594 0.558594
0.558594 0.558594 0.558594
0.558594 0.558594 0.558594
0.558594 0.558594 0.558594
0.558594 0.558594 0.558594
0.000977 0.000977 0.000977
0.000977 0.000977 0.000977
0.000000 0.000000 0.000000
0.000000 0.000000 0.000000
0.000000 0.000000 0.000000
0.000000 0.000000 0.000000
0.001953 0.001953 0.001953
0.006836 0.006836 0.006836
0.010742 0.010742 0.010742
0.015625 0.015625 0.015625
0.023438 0.023438 0.023438
0.029297 0.029297 0.029297
0.040039 0.040039 0.040039
0.051758 0.051758 0.051758
0.069336 0.069336 0.069336
0.088867 0.088867 0.088867
0.109375 0.109375 0.109375
0.131836 0.131836 0.131836
0.156250 0.156250 0.156250
0.183594 0.183594 0.183594
0.214844 0.214844 0.214844
0.245117 0.245117 0.245117
0.281250 0.281250 0.281250
0.318359 0.318359 0.318359
0.361328 0.361328 0.361328
0.405273 0.405273 0.405273
0.444336 0.444336 0.444336
0.477539 0.477539 0.477539
0.508789 0.508789 0.508789
0.541016 0.541016 0.541016
0.558594 0.558594 0.558594
0.558594 0.558594 0.558594
0.558594 0.558594 0.558594
0.558594 0.558594 0.558594
0.558594 0.558594 0.558594
0.558594 0.558594 0.558594
0.558594 0.558594 0.558594
0.558594 0.558594 0.558594
0.558594 0.558594 0.558594
0.558594 0.558594 0.558594
0.558594 0.558594 0.558594
0.558594 0.558594 0.558594
0.558594 0.558594 0.558594
0.558594 0.558594 0.558594
0.558594 0.558594 0.558594
0.558594 0.558594 0.558594
0.558594 0.558594 0.558594
0.558594 0.558594 0.558594
0.558594 0.558594 0.558594
0.558594 0.558594 0.558594
0.558594 0.558594 0.558594
0.558594 0.558594 0.558594
0.558594 0.558594 0.558594
0.558594 0.558594 0.558594
0.558594 0.558594 0.558594
0.558594 0.558594 0.558594
0.558594 0.558594 0.558594
0.558594 0.558594 0.558594
0.558594 0.558594 0.558594
0.558594 0.558594 0.558594
0.558594 0.558594 0.558594
0.558594 0.558594 0.558594
0.558594 0.558594 0.558594
0.558594 0.558594 0.558594
0.558594 0.558594 0.558594
0.006836 0.006836 0.006836
0.005859 0.005859 0.005859
0.004883 0.004883 0.004883
0.002930 0.002930 0.002930
0.000977 0.000977 0.000977
0.000000 0.000000 0.000000
0.000977 0.000977 0.000977
0.004883 0.004883 0.004883
0.008789 0.008789 0.008789
0.013672 0.013672 0.013672
0.020508 0.020508 0.020508
0.027344 0.027344 0.027344
0.036133 0.036133 0.036133
0.046875 0.046875 0.046875
0.063477 0.063477 0.063477
0.079102 0.079102 0.079102
0.099609 0.099609 0.099609
0.122070 0.122070 0.122070
0.144531 0.144531 0.144531
0.170898 0.170898 0.170898
0.201172 0.201172 0.201172
0.232422 0.232422 0.232422
0.264648 0.264648 0.264648
0.301758 0.301758 0.301758
0.342773 0.342773 0.342773
0.386719 0.386719 0.386719
0.430664 0.430664 0.430664
0.462891 0.462891 0.462891
0.497070 0.497070 0.497070
0.527344 0.527344 0.527344
0.557617 0.557617 0.557617
0.558594 0.558594 0.558594
0.558594 0.558594 0.558594
0.558594 0.558594 0.558594
0.558594 0.558594 0.558594
0.558594 0.558594 0.558594
0.558594 0.558594 0.558594
0.558594 0.558594 0.558594
0.558594 0.558594 0.558594
0.558594 0.558594 0.558594
0.558594 0.558594 0.558594
0.558594 0.558594 0.558594
0.558594 0.558594 0.558594
0.558594 0.558594 0.558594
0.558594 0.558594 0.558594
0.558594 0.558594 0.558594
0.558594 0.558594 0.558594
0.558594 0.558594 0.558594
0.558594 0.558594 0.558594
0.558594 0.558594 0.558594
0.558594 0.558594 0.558594
0.558594 0.558594 0.558594
0.558594 0.558594 0.558594
0.558594 0.558594 0.558594
0.558594 0.558594 0.558594
0.558594 0.558594 0.558594
0.558594 0.558594 0.558594
0.558594 0.558594 0.558594
0.558594 0.558594 0.558594
0.558594 0.558594 0.558594
0.558594 0.558594 0.558594
0.558594 0.558594 0.558594
0.558594 0.558594 0.558594
0.558594 0.558594 0.558594
0.558594 0.558594 0.558594
0.011719 0.011719 0.011719
0.010742 0.010742 0.010742
0.008789 0.008789 0.008789
0.006836 0.006836 0.006836
0.005859 0.005859 0.005859
0.004883 0.004883 0.004883
0.002930 0.002930 0.002930
0.003906 0.003906 0.003906
0.006836 0.006836 0.006836
0.011719 0.011719 0.011719
0.016602 0.016602 0.016602
0.024414 0.024414 0.024414
0.032227 0.032227 0.032227
0.041016 0.041016 0.041016
0.054688 0.054688 0.054688
0.072266 0.072266 0.072266
0.091797 0.091797 0.091797
0.113281 0.113281 0.113281
0.134766 0.134766 0.134766
0.159180 0.159180 0.159180
0.187500 0.187500 0.187500
0.218750 0.218750 0.218750
0.250000 0.250000 0.250000
0.286133 0.286133 0.286133
0.324219 0.324219 0.324219
0.369141 0.369141 0.369141
0.413086 0.413086 0.413086
0.449219 0.449219 0.449219
0.481445 0.481445 0.481445
0.514648 0.514648 0.514648
0.546875 0.546875 0.546875
0.558594 0.558594 0.558594
0.558594 0.558594 0.558594
0.558594 0.558594 0.558594
0.558594 0.558594 0.558594
0.558594 0.558594 0.558594
0.558594 0.558594 0.558594
0.558594 0.558594 0.558594
0.558594 0.558594 0.558594
0.558594 0.558594 0.558594
0.558594 0.558594 0.558594
0.558594 0.558594 0.558594
0.558594 0.558594 0.558594
0.558594 0.558594 0.558594
0.558594 0.558594 0.558594
0.558594 0.558594 0.558594
0.558594 0.558594 0.558594
0.558594 0.558594 0.558594
0.558594 0.558594 0.558594
0.558594 0.558594 0.558594
0.558594 0.558594 0.558594
0.558594 0.558594 0.558594
0.558594 0.558594 0.558594
0.558594 0.558594 0.558594
0.558594 0.558594 0.558594
0.558594 0.558594 0.558594
0.558594 0.558594 0.558594
0.558594 0.558594 0.558594
0.558594 0.558594 0.558594
0.558594 0.558594 0.558594
0.558594 0.558594 0.558594
0.558594 0.558594 0.558594
0.558594 0.558594 0.558594
0.558594 0.558594 0.558594
0.558594 0.558594 0.558594
0.019531 0.019531 0.019531
0.016602 0.016602 0.016602
0.014648 0.014648 0.014648
0.013672 0.013672 0.013672
0.010742 0.010742 0.010742
0.008789 0.008789 0.008789
0.006836 0.006836 0.006836
0.007813 0.007813 0.007813
0.009766 0.009766 0.009766
0.013672 0.013672 0.013672
0.016602 0.016602 0.016602
0.021484 0.021484 0.021484
0.027344 0.027344 0.027344
0.037109 0.037109 0.037109
0.048828 0.048828 0.048828
0.065430 0.065430 0.065430
0.082031 0.082031 0.082031
0.102539 0.102539 0.102539
0.125000 0.125000 0.125000
0.149414 0.149414 0.149414
0.175781 0.175781 0.175781
0.205078 0.205078 0.205078
0.238281 0.238281 0.238281
0.270508 0.270508 0.270508
0.306641 0.306641 0.306641
0.349609 0.349609 0.349609
0.393555 0.393555 0.393555
0.436523 0.436523 0.436523
0.468750 0.468750 0.468750
0.500977 0.500977 0.500977
0.533203 0.533203 0.533203
0.558594 0.558594 0.558594
0.558594 0.558594 0.558594
0.558594 0.558594 0.558594
0.558594 0.558594 0.558594
0.558594 0.558594 0.558594
0.558594 0.558594 0.558594
0.558594 0.558594 0.558594
0.558594 0.558594 0.558594
0.558594 0.558594 0.558594
0.558594 0.558594 0.558594
0.558594 0.558594 0.558594
0.558594 0.558594 0.558594
0.558594 0.558594 0.558594
0.558594 0.558594 0.558594
0.558594 0.558594 0.558594
0.558594 0.558594 0.558594
0.558594 0.558594 0.558594
0.558594 0.558594 0.558594
0.558594 0.558594 0.558594
0.558594 0.558594 0.558594
0.558594 0.558594 0.558594
0.558594 0.558594 0.558594
0.558594 0.558594 0.558594
0.558594 0.558594 0.558594
0.558594 0.558594 0.558594
0.558594 0.558594 0.558594
0.558594 0.558594 0.558594
0.558594 0.558594 0.558594
0.558594 0.558594 0.558594
0.558594 0.558594 0.558594
0.558594 0.558594 0.558594
0.558594 0.558594 0.558594
0.558594 0.558594 0.558594
0.558594 0.558594 0.558594
0.026367 0.026367 0.026367
0.024414 0.024414 0.024414
0.020508 0.020508 0.020508
0.019531 0.019531 0.019531
0.017578 0.017578 0.017578
0.014648 0.014648 0.014648
0.013672 0.013672 0.013672
0.011719 0.011719 0.011719
0.013672 0.013672 0.013672
0.015625 0.015625 0.015625
0.018555 0.018555 0.018555
0.023438 0.023438 0.023438
0.028320 0.028320 0.028320
0.035156 0.035156 0.035156
0.043945 0.043945 0.043945
0.057617 0.057617 0.057617
0.075195 0.075195 0.075195
0.093750 0.093750 0.093750
0.115234 0.115234 0.115234
0.138672 0.138672 0.138672
0.164063 0.164063 0.164063
0.191406 0.191406 0.191406
0.223633 0.223633 0.223633
0.255859 0.255859 0.255859
0.291016 0.291016 0.291016
0.332031 0.332031 0.332031
0.375000 0.375000 0.375000
0.419922 0.419922 0.419922
0.455078 0.455078 0.455078
0.487305 0.487305 0.487305
0.518555 0.518555 0.518555
0.549805 0.549805 0.549805
0.558594 0.558594 0.558594
0.558594 0.558594 0.558594
0.558594 0.558594 0.558594
0.558594 0.558594 0.558594
0.558594 0.558594 0.558594
0.558594 0.558594 0.558594
0.558594 0.558594 0.558594
0.558594 0.558594 0.558594
0.558594 0.558594 0.558594
0.558594 0.558594 0.558594
0.558594 0.558594 0.558594
0.558594 0.558594 0.558594
0.558594 0.558594 0.558594
0.558594 0.558594 0.558594
0.558594 0.558594 0.558594
0.558594 0.558594 0.558594
0.558594 0.558594 0.558594
0.558594 0.558594 0.558594
0.558594 0.558594 0.558594
0.558594 0.558594 0.558594
0.558594 0.558594 0.558594
0.558594 0.558594 0.558594
0.558594 0.558594 0.558594
0.558594 0.558594 0.558594
0.558594 0.558594 0.558594
0.558594 0.558594 0.558594
0.558594 0.558594 0.558594
0.558594 0.558594 0.558594
0.558594 0.558594 0.558594
0.558594 0.558594 0.558594
0.558594 0.558594 0.558594
0.558594 0.558594 0.558594
0.558594 0.558594 0.558594
0.037109 0.037109 0.037109
0.033203 0.033203 0.033203
0.031250 0.031250 0.031250
0.026367 0.026367 0.026367
0.024414 0.024414 0.024414
0.022461 0.022461 0.022461
0.019531 0.019531 0.019531
0.017578 0.017578 0.017578
0.018555 0.018555 0.018555
0.020508 0.020508 0.020508
0.023438 0.023438 0.023438
0.026367 0.026367 0.026367
0.032227 0.032227 0.032227
0.037109 0.037109 0.037109
0.044922 0.044922 0.044922
0.057617 0.057617 0.057617
0.070313 0.070313 0.070313
0.086914 0.086914 0.086914
0.106445 0.106445 0.106445
0.127930 0.127930 0.127930
0.152344 0.152344 0.152344
0.180664 0.180664 0.180664
0.209961 0.209961 0.209961
0.242188 0.242188 0.242188
0.276367 0.276367 0.276367
0.313477 0.313477 0.313477
0.356445 0.356445 0.356445
0.401367 0.401367 0.401367
0.441406 0.441406 0.441406
0.473633 0.473633 0.473633
0.505859 0.505859 0.505859
0.539063 0.539063 0.539063
0.558594 0.558594 0.558594
0.558594 0.558594 0.558594
0.558594 0.558594 0.558594
0.558594 0.558594 0.558594
0.558594 0.558594 0.558594
0.558594 0.558594 0.558594
0.558594 0.558594 0.558594
0.558594 0.558594 0.558594
0.558594 0.558594 0.558594
0.558594 0.558594 0.558594
0.558594 0.558594 0.558594
0.558594 0.558594 0.558594
0.558594 0.558594 0.558594
0.558594 0.558594 0.558594
0.558594 0.558594 0.558594
0.558594 0.558594 0.558594
0.558594 0.558594 0.558594
0.558594 0.558594 0.558594
0.558594 0.558594 0.558594
0.558594 0.558594 0.558594
0.558594 0.558594 0.558594
0.558594 0.558594 0.558594
0.558594 0.558594 0.558594
0.558594 0.558594 0.558594
0.558594 0.558594 0.558594
0.558594 0.558594 0.558594
0.558594 0.558594 0.558594
0.558594 0.558594 0.558594
0.558594 0.558594 0.558594
0.558594 0.558594 0.558594
0.558594 0.558594 0.558594
0.558594 0.558594 0.558594
0.558594 0.558594 0.558594
0.045898 0.045898 0.045898
0.042969 0.042969 0.042969
0.040039 0.040039 0.040039
0.037109 0.037109 0.037109
0.034180 0.034180 0.034180
0.031250 0.031250 0.031250
0.026367 0.026367 0.026367
0.025391 0.025391 0.025391
0.024414 0.024414 0.024414
0.025391 0.025391 0.025391
0.027344 0.027344 0.027344
0.030273 0.030273 0.030273
0.036133 0.036133 0.036133
0.041016 0.041016 0.041016
0.047852 0.047852 0.047852
0.058594 0.058594 0.058594
0.070313 0.070313 0.070313
0.086914 0.086914 0.086914
0.104492 0.104492 0.104492
0.123047 0.123047 0.123047
0.143555 0.143555 0.143555
0.167969 0.167969 0.167969
0.197266 0.197266 0.197266
0.228516 0.228516 0.228516
0.260742 0.260742 0.260742
0.297852 0.297852 0.297852
0.336914 0.336914 0.336914
0.381836 0.381836 0.381836
0.425781 0.425781 0.425781
0.459961 0.459961 0.459961
0.493164 0.493164 0.493164
0.524414 0.524414 0.524414
0.554688 0.554688 0.554688
0.558594 0.558594 0.558594
0.558594 0.558594 0.558594
0.558594 0.558594 0.558594
0.558594 0.558594 0.558594
0.558594 0.558594 0.558594
0.558594 0.558594 0.558594
0.558594 0.558594 0.558594
0.558594 0.558594 0.558594
0.558594 0.558594 0.558594
0.558594 0.558594 0.558594
0.558594 0.558594 0.558594
0.558594 0.558594 0.558594
0.558594 0.558594 0.558594
0.558594 0.558594 0.558594
0.558594 0.558594 0.558594
0.558594 0.558594 0.558594
0.558594 0.558594 0.558594
0.558594 0.558594 0.558594
0.558594 0.558594 0.558594
0.558594 0.558594 0.558594
0.558594 0.558594 0.558594
0.558594 0.558594 0.558594
0.558594 0.558594 0.558594
0.558594 0.558594 0.558594
0.558594 0.558594 0.558594
0.558594 0.558594 0.558594
0.558594 0.558594 0.558594
0.558594 0.558594 0.558594
0.558594 0.558594 0.558594
0.558594 0.558594 0.558594
0.558594 0.558594 0.558594
0.558594 0.558594 0.558594
0.057617 0.057617 0.057617
0.054688 0.054688 0.054688
0.051758 0.051758 0.051758
0.046875 0.046875 0.046875
0.043945 0.043945 0.043945
0.041016 0.041016 0.041016
0.037109 0.037109 0.037109
0.034180 0.034180 0.034180
0.031250 0.031250 0.031250
0.033203 0.033203 0.033203
0.033203 0.033203 0.033203
0.037109 0.037109 0.037109
0.041016 0.041016 0.041016
0.044922 0.044922 0.044922
0.050781 0.050781 0.050781
0.060547 0.060547 0.060547
0.072266 0.072266 0.072266
0.085938 0.085938 0.085938
0.103516 0.103516 0.103516
0.123047 0.123047 0.123047
0.143555 0.143555 0.143555
0.164063 0.164063 0.164063
0.189453 0.189453 0.189453
0.217773 0.217773 0.217773
0.248047 0.248047 0.248047
0.282227 0.282227 0.282227
0.320313 0.320313 0.320313
0.363281 0.363281 0.363281
0.408203 0.408203 0.408203
0.446289 0.446289 0.446289
0.478516 0.478516 0.478516
0.510742 0.510742 0.510742
0.542969 0.542969 0.542969
0.558594 0.558594 0.558594
0.558594 0.558594 0.558594
0.558594 0.558594 0.558594
0.558594 0.558594 0.558594
0.558594 0.558594 0.558594
0.558594 0.558594 0.558594
0.558594 0.558594 0.558594
0.558594 0.558594 0.558594
0.558594 0.558594 0.558594
0.558594 0.558594 0.558594
0.558594 0.558594 0.558594
0.558594 0.558594 0.558594
0.558594 0.558594 0.558594
0.558594 0.558594 0.558594
0.558594 0.558594 0.558594
0.558594 0.558594 0.558594
0.558594 0.558594 0.558594
0.558594 0.558594 0.558594
0.558594 0.558594 0.558594
0.558594 0.558594 0.558594
0.558594 0.558594 0.558594
0.558594 0.558594 0.558594
0.558594 0.558594 0.558594
0.558594 0.558594 0.558594
0.558594 0.558594 0.558594
0.558594 0.558594 0.558594
0.558594 0.558594 0.558594
0.558594 0.558594 0.558594
0.558594 0.558594 0.558594
0.558594 0.558594 0.558594
0.558594 0.558594 0.558594
0.558594 0.558594 0.558594
0.070313 0.070313 0.070313
0.067383 0.067383 0.067383
0.062500 0.062500 0.062500
0.058594 0.058594 0.058594
0.054688 0.054688 0.054688
0.051758 0.051758 0.051758
0.046875 0.046875 0.046875
0.043945 0.043945 0.043945
0.041016 0.041016 0.041016
0.040039 0.040039 0.040039
0.042969 0.042969 0.042969
0.042969 0.042969 0.042969
0.047852 0.047852 0.047852
0.052734 0.052734 0.052734
0.056641 0.056641 0.056641
0.064453 0.064453 0.064453
0.074219 0.074219 0.074219
0.088867 0.088867 0.088867
0.104492 0.104492 0.104492
0.123047 0.123047 0.123047
0.143555 0.143555 0.143555
0.165039 0.165039 0.165039
0.188477 0.188477 0.188477
0.213867 0.213867 0.213867
0.242188 0.242188 0.242188
0.273438 0.273438 0.273438
0.307617 0.307617 0.307617
0.343750 0.343750 0.343750
0.389648 0.389648 0.389648
0.432617 0.432617 0.432617
0.465820 0.465820 0.465820
0.497070 0.497070 0.497070
0.529297 0.529297 0.529297
0.558594 0.558594 0.558594
0.558594 0.558594 0.558594
0.558594 0.558594 0.558594
0.558594 0.558594 0.558594
0.558594 0.558594 0.558594
