tests/files/FLog2C_to_ACROS_33grid_V.1.00.cube
#title:FLog2C_to_ACROS
#model:GFX ETERNA 55
#FUJIFILM Corporation
#Gamma:F-Log2C to ACROS
#Gamut:F-GamutC to ITU-R BT.709
#Version:1.00
LUT_3D_SIZE 9
0.000000 0.000000 0.000000
0.024414 0.024414 0.024414
0.159180 0.159180 0.159180
0.448242 0.448242 0.448242
0.558594 0.558594 0.558594
0.558594 0.558594 0.558594
0.558594 0.558594 0.558594
0.558594 0.558594 0.558594
0.558594 0.558594 0.558594
0.019531 0.019531 0.019531
0.009766 0.009766 0.009766
0.082031 0.082031 0.082031
0.306641 0.306641 0.306641
0.558594 0.558594 0.558594
0.558594 0.558594 0.558594
0.558594 0.558594 0.558594
0.558594 0.558594 0.558594
0.558594 0.558594 0.558594
0.136719 0.136719 0.136719
0.080078 0.080078 0.080078
0.089844 0.089844 0.089844
0.236328 0.236328 0.236328
0.506836 0.506836 0.506836
0.558594 0.558594 0.558594
0.558594 0.558594 0.558594
0.558594 0.558594 0.558594
0.558594 0.558594 0.558594
0.400391 0.400391 0.400391
0.309570 0.309570 0.309570
0.251953 0.251953 0.251953
0.324219 0.324219 0.324219
0.532227 0.532227 0.532227
0.629883 0.629883 0.629883
0.601563 0.601563 0.601563
0.576172 0.576172 0.576172
0.558594 0.558594 0.558594
0.657227 0.657227 0.657227
0.593750 0.593750 0.593750
0.511719 0.511719 0.511719
0.530273 0.530273 0.530273
0.628906 0.628906 0.628906
0.721680 0.721680 0.721680
0.697266 0.697266 0.697266
0.666016 0.666016 0.666016
0.634766 0.634766 0.634766
0.698242 0.698242 0.698242
0.690430 0.690430 0.690430
0.678711 0.678711 0.678711
0.703125 0.703125 0.703125
0.772461 0.772461 0.772461
0.830078 0.830078 0.830078
0.795898 0.795898 0.795898
0.766602 0.766602 0.766602
0.734375 0.734375 0.734375
0.702148 0.702148 0.702148
0.701172 0.701172 0.701172
0.701172 0.701172 0.701172
0.703125 0.703125 0.703125
0.758789 0.758789 0.758789
0.851563 0.851563 0.851563
0.878906 0.878906 0.878906
0.859375 0.859375 0.859375
0.833008 0.833008 0.833008
0.709961 0.709961 0.709961
0.702148 0.702148 0.702148
0.701172 0.701172 0.701172
0.701172 0.701172 0.701172
0.728516 0.728516 0.728516
0.796875 0.796875 0.796875
0.877930 0.877930 0.877930
0.884766 0.884766 0.884766
0.884766 0.884766 0.884766
0.745117 0.745117 0.745117
0.714844 0.714844 0.714844
0.702148 0.702148 0.702148
0.701172 0.701172 0.701172
0.709961 0.709961 0.709961
0.764648 0.764648 0.764648
0.844727 0.844727 0.844727
0.884766 0.884766 0.884766
0.884766 0.884766 0.884766
0.000977 0.000977 0.000977
0.020508 0.020508 0.020508
0.143555 0.143555 0.143555
0.427734 0.427734 0.427734
0.558594 0.558594 0.558594
0.558594 0.558594 0.558594
0.558594 0.558594 0.558594
0.558594 0.558594 0.558594
0.558594 0.558594 0.558594
0.025391 0.025391 0.025391
0.011719 0.011719 0.011719
0.070313 0.070313 0.070313
0.285156 0.285156 0.285156
0.558594 0.558594 0.558594
0.558594 0.558594 0.558594
0.558594 0.558594 0.558594
0.558594 0.558594 0.558594
0.558594 0.558594 0.558594
0.167969 0.167969 0.167969
0.094727 0.094727 0.094727
0.091797 0.091797 0.091797
0.225586 0.225586 0.225586
0.496094 0.496094 0.496094
0.558594 0.558594 0.558594
0.558594 0.558594 0.558594
0.558594 0.558594 0.558594
0.558594 0.558594 0.558594
0.453125 0.453125 0.453125
0.343750 0.343750 0.343750
0.266602 0.266602 0.266602
0.325195 0.325195 0.325195
0.521484 0.521484 0.521484
0.635742 0.635742 0.635742
0.607422 0.607422 0.607422
0.582031 0.582031 0.582031
0.558594 0.558594 0.558594
0.692383 0.692383 0.692383
0.623047 0.623047 0.623047
0.533203 0.533203 0.533203
0.535156 0.535156 0.535156
0.627930 0.627930 0.627930
0.725586 0.725586 0.725586
0.704102 0.704102 0.704102
0.672852 0.672852 0.672852
0.641602 0.641602 0.641602
0.703125 0.703125 0.703125
0.693359 0.693359 0.693359
0.681641 0.681641 0.681641
0.700195 0.700195 0.700195
0.772461 0.772461 0.772461
0.836914 0.836914 0.836914
0.804688 0.804688 0.804688
0.773438 0.773438 0.773438
0.742188 0.742188 0.742188
0.733398 0.733398 0.733398
0.704102 0.704102 0.704102
0.702148 0.702148 0.702148
0.701172 0.701172 0.701172
0.752930 0.752930 0.752930
0.843750 0.843750 0.843750
0.882813 0.882813 0.882813
0.864258 0.864258 0.864258
0.838867 0.838867 0.838867
0.760742 0.760742 0.760742
0.739258 0.739258 0.739258
0.709961 0.709961 0.709961
0.702148 0.702148 0.702148
0.725586 0.725586 0.725586
0.791016 0.791016 0.791016
0.872070 0.872070 0.872070
0.884766 0.884766 0.884766
0.884766 0.884766 0.884766
0.779297 0.779297 0.779297
0.764648 0.764648 0.764648
0.745117 0.745117 0.745117
0.715820 0.715820 0.715820
0.708008 0.708008 0.708008
0.760742 0.760742 0.760742
0.838867 0.838867 0.838867
0.884766 0.884766 0.884766
0.884766 0.884766 0.884766
0.008789 0.008789 0.008789
0.019531 0.019531 0.019531
0.130859 0.130859 0.130859
0.401367 0.401367 0.401367
0.558594 0.558594 0.558594
0.558594 0.558594 0.558594
0.558594 0.558594 0.558594
0.558594 0.558594 0.558594
0.558594 0.558594 0.558594
0.037109 0.037109 0.037109
0.016602 0.016602 0.016602
0.066406 0.066406 0.066406
0.267578 0.267578 0.267578
0.556641 0.556641 0.556641
0.558594 0.558594 0.558594
0.558594 0.558594 0.558594
0.558594 0.558594 0.558594
0.558594 0.558594 0.558594
0.217773 0.217773 0.217773
0.128906 0.128906 0.128906
0.107422 0.107422 0.107422
0.228516 0.228516 0.228516
0.491211 0.491211 0.491211
0.559570 0.559570 0.559570
0.558594 0.558594 0.558594
0.558594 0.558594 0.558594
0.558594 0.558594 0.558594
0.517578 0.517578 0.517578
0.410156 0.410156 0.410156
0.314453 0.314453 0.314453
0.355469 0.355469 0.355469
0.531250 0.531250 0.531250
0.648438 0.648438 0.648438
0.614258 0.614258 0.614258
0.587891 0.587891 0.587891
0.563477 0.563477 0.563477
0.735352 0.735352 0.735352
0.682617 0.682617 0.682617
0.595703 0.595703 0.595703
0.582031 0.582031 0.582031
0.654297 0.654297 0.654297
0.745117 0.745117 0.745117
0.719727 0.719727 0.719727
0.681641 0.681641 0.681641
0.649414 0.649414 0.649414
0.753906 0.753906 0.753906
0.740234 0.740234 0.740234
0.723633 0.723633 0.723633
0.724609 0.724609 0.724609
0.789063 0.789063 0.789063
0.855469 0.855469 0.855469
0.826172 0.826172 0.826172
0.788086 0.788086 0.788086
0.750977 0.750977 0.750977
0.773438 0.773438 0.773438
0.756836 0.756836 0.756836
0.734375 0.734375 0.734375
0.704102 0.704102 0.704102
0.748047 0.748047 0.748047
0.835938 0.835938 0.835938
0.888672 0.888672 0.888672
0.872070 0.872070 0.872070
0.846680 0.846680 0.846680
0.787109 0.787109 0.787109
0.776367 0.776367 0.776367
0.760742 0.760742 0.760742
0.739258 0.739258 0.739258
0.730469 0.730469 0.730469
0.786133 0.786133 0.786133
0.867188 0.867188 0.867188
0.884766 0.884766 0.884766
0.884766 0.884766 0.884766
0.796875 0.796875 0.796875
0.790039 0.790039 0.790039
0.779297 0.779297 0.779297
0.764648 0.764648 0.764648
0.749023 0.749023 0.749023
0.770508 0.770508 0.770508
0.833008 0.833008 0.833008
0.884766 0.884766 0.884766
0.884766 0.884766 0.884766
0.027344 0.027344 0.027344
0.031250 0.031250 0.031250
0.128906 0.128906 0.128906
0.383789 0.383789 0.383789
0.559570 0.559570 0.559570
0.558594 0.558594 0.558594
0.558594 0.558594 0.558594
0.558594 0.558594 0.558594
0.558594 0.558594 0.558594
0.058594 0.058594 0.058594
0.031250 0.031250 0.031250
0.080078 0.080078 0.080078
0.261719 0.261719 0.261719
0.545898 0.545898 0.545898
0.560547 0.560547 0.560547
0.558594 0.558594 0.558594
0.558594 0.558594 0.558594
0.558594 0.558594 0.558594
0.273438 0.273438 0.273438
0.170898 0.170898 0.170898
0.135742 0.135742 0.135742
0.247070 0.247070 0.247070
0.492188 0.492188 0.492188
0.570313 0.570313 0.570313
0.561523 0.561523 0.561523
0.558594 0.558594 0.558594
0.558594 0.558594 0.558594
0.567383 0.567383 0.567383
0.471680 0.471680 0.471680
0.374023 0.374023 0.374023
0.405273 0.405273 0.405273
0.551758 0.551758 0.551758
0.664063 0.664063 0.664063
0.629883 0.629883 0.629883
0.597656 0.597656 0.597656
0.568359 0.568359 0.568359
0.756836 0.756836 0.756836
0.715820 0.715820 0.715820
0.649414 0.649414 0.649414
0.632813 0.632813 0.632813
0.693359 0.693359 0.693359
0.767578 0.767578 0.767578
0.739258 0.739258 0.739258
0.701172 0.701172 0.701172
0.663086 0.663086 0.663086
0.783203 0.783203 0.783203
0.771484 0.771484 0.771484
0.758789 0.758789 0.758789
0.760742 0.760742 0.760742
0.823242 0.823242 0.823242
0.885742 0.885742 0.885742
0.851563 0.851563 0.851563
0.813477 0.813477 0.813477
0.773438 0.773438 0.773438
0.793945 0.793945 0.793945
0.786133 0.786133 0.786133
0.773438 0.773438 0.773438
0.756836 0.756836 0.756836
0.786133 0.786133 0.786133
0.865234 0.865234 0.865234
0.921875 0.921875 0.921875
0.899414 0.899414 0.899414
0.871094 0.871094 0.871094
0.799805 0.799805 0.799805
0.795898 0.795898 0.795898
0.787109 0.787109 0.787109
0.776367 0.776367 0.776367
0.778320 0.778320 0.778320
0.818359 0.818359 0.818359
0.875000 0.875000 0.875000
0.892578 0.892578 0.892578
0.890625 0.890625 0.890625
0.797852 0.797852 0.797852
0.799805 0.799805 0.799805
0.796875 0.796875 0.796875
0.790039 0.790039 0.790039
0.780273 0.780273 0.780273
0.812500 0.812500 0.812500
0.870117 0.870117 0.870117
0.911133 0.911133 0.911133
0.888672 0.888672 0.888672
0.058594 0.058594 0.058594
0.058594 0.058594 0.058594
0.147461 0.147461 0.147461
0.371094 0.371094 0.371094
0.564453 0.564453 0.564453
0.562500 0.562500 0.562500
0.559570 0.559570 0.559570
0.558594 0.558594 0.558594
0.558594 0.558594 0.558594
0.083008 0.083008 0.083008
0.063477 0.063477 0.063477
0.115234 0.115234 0.115234
0.262695 0.262695 0.262695
0.529297 0.529297 0.529297
0.565430 0.565430 0.565430
0.563477 0.563477 0.563477
0.560547 0.560547 0.560547
0.558594 0.558594 0.558594
0.301758 0.301758 0.301758
0.204102 0.204102 0.204102
0.165039 0.165039 0.165039
0.268555 0.268555 0.268555
0.485352 0.485352 0.485352
0.576172 0.576172 0.576172
0.565430 0.565430 0.565430
0.563477 0.563477 0.563477
0.561523 0.561523 0.561523
0.581055 0.581055 0.581055
0.508789 0.508789 0.508789
0.420898 0.420898 0.420898
0.453125 0.453125 0.453125
0.569336 0.569336 0.569336
0.673828 0.673828 0.673828
0.640625 0.640625 0.640625
0.609375 0.609375 0.609375
0.581055 0.581055 0.581055
0.746094 0.746094 0.746094
0.718750 0.718750 0.718750
0.671875 0.671875 0.671875
0.668945 0.668945 0.668945
0.724609 0.724609 0.724609
0.784180 0.784180 0.784180
0.753906 0.753906 0.753906
0.715820 0.715820 0.715820
0.678711 0.678711 0.678711
0.798828 0.798828 0.798828
0.790039 0.790039 0.790039
0.778320 0.778320 0.778320
0.779297 0.779297 0.779297
0.835938 0.835938 0.835938
0.900391 0.900391 0.900391
0.868164 0.868164 0.868164
0.832031 0.832031 0.832031
0.793945 0.793945 0.793945
0.797852 0.797852 0.797852
0.798828 0.798828 0.798828
0.793945 0.793945 0.793945
0.786133 0.786133 0.786133
0.811523 0.811523 0.811523
0.886719 0.886719 0.886719
0.951172 0.951172 0.951172
0.923828 0.923828 0.923828
0.896484 0.896484 0.896484
0.797852 0.797852 0.797852
0.797852 0.797852 0.797852
0.799805 0.799805 0.799805
0.795898 0.795898 0.795898
0.800781 0.800781 0.800781
0.847656 0.847656 0.847656
0.914063 0.914063 0.914063
0.932617 0.932617 0.932617
0.927734 0.927734 0.927734
0.797852 0.797852 0.797852
0.797852 0.797852 0.797852
0.797852 0.797852 0.797852
0.799805 0.799805 0.799805
0.796875 0.796875 0.796875
0.832031 0.832031 0.832031
0.895508 0.895508 0.895508
0.951172 0.951172 0.951172
0.933594 0.933594 0.933594
0.094727 0.094727 0.094727
0.092773 0.092773 0.092773
0.187500 0.187500 0.187500
0.358398 0.358398 0.358398
0.560547 0.560547 0.560547
0.564453 0.564453 0.564453
0.564453 0.564453 0.564453
0.562500 0.562500 0.562500
0.559570 0.559570 0.559570
0.117188 0.117188 0.117188
0.100586 0.100586 0.100586
0.160156 0.160156 0.160156
0.287109 0.287109 0.287109
0.496094 0.496094 0.496094
0.558594 0.558594 0.558594
0.564453 0.564453 0.564453
0.564453 0.564453 0.564453
0.563477 0.563477 0.563477
0.222656 0.222656 0.222656
0.172852 0.172852 0.172852
0.159180 0.159180 0.159180
0.271484 0.271484 0.271484
0.458008 0.458008 0.458008
0.568359 0.568359 0.568359
0.557617 0.557617 0.557617
0.563477 0.563477 0.563477
0.565430 0.565430 0.565430
0.517578 0.517578 0.517578
0.478516 0.478516 0.478516
0.424805 0.424805 0.424805
0.467773 0.467773 0.467773
0.569336 0.569336 0.569336
0.662109 0.662109 0.662109
0.640625 0.640625 0.640625
0.613281 0.613281 0.613281
0.586914 0.586914 0.586914
0.694336 0.694336 0.694336
0.671875 0.671875 0.671875
0.647461 0.647461 0.647461
0.659180 0.659180 0.659180
0.728516 0.728516 0.728516
0.785156 0.785156 0.785156
0.757813 0.757813 0.757813
0.722656 0.722656 0.722656
0.687500 0.687500 0.687500
0.797852 0.797852 0.797852
0.792969 0.792969 0.792969
0.778320 0.778320 0.778320
0.766602 0.766602 0.766602
0.820313 0.820313 0.820313
0.892578 0.892578 0.892578
0.873047 0.873047 0.873047
0.840820 0.840820 0.840820
0.806641 0.806641 0.806641
0.797852 0.797852 0.797852
0.797852 0.797852 0.797852
0.797852 0.797852 0.797852
0.798828 0.798828 0.798828
0.823242 0.823242 0.823242
0.894531 0.894531 0.894531
0.968750 0.968750 0.968750
0.938477 0.938477 0.938477
0.911133 0.911133 0.911133
0.797852 0.797852 0.797852
0.797852 0.797852 0.797852
0.797852 0.797852 0.797852
0.797852 0.797852 0.797852
0.809570 0.809570 0.809570
0.859375 0.859375 0.859375
0.932617 0.932617 0.932617
0.962891 0.962891 0.962891
0.957031 0.957031 0.957031
0.797852 0.797852 0.797852
0.797852 0.797852 0.797852
0.797852 0.797852 0.797852
0.797852 0.797852 0.797852
0.797852 0.797852 0.797852
0.835938 0.835938 0.835938
0.905273 0.905273 0.905273
0.976563 0.976563 0.976563
0.965820 0.965820 0.965820
0.119141 0.119141 0.119141
0.124023 0.124023 0.124023
0.231445 0.231445 0.231445
0.357422 0.357422 0.357422
0.536133 0.536133 0.536133
0.551758 0.551758 0.551758
0.560547 0.560547 0.560547
0.564453 0.564453 0.564453
0.564453 0.564453 0.564453
0.125000 0.125000 0.125000
0.122070 0.122070 0.122070
0.196289 0.196289 0.196289
0.320313 0.320313 0.320313
0.434570 0.434570 0.434570
0.532227 0.532227 0.532227
0.549805 0.549805 0.549805
0.558594 0.558594 0.558594
0.564453 0.564453 0.564453
0.136719 0.136719 0.136719
0.133789 0.133789 0.133789
0.156250 0.156250 0.156250
0.282227 0.282227 0.282227
0.397461 0.397461 0.397461
0.531250 0.531250 0.531250
0.526367 0.526367 0.526367
0.546875 0.546875 0.546875
0.557617 0.557617 0.557617
0.421875 0.421875 0.421875
0.343750 0.343750 0.343750
0.311523 0.311523 0.311523
0.377930 0.377930 0.377930
0.503906 0.503906 0.503906
0.622070 0.622070 0.622070
0.619141 0.619141 0.619141
0.599609 0.599609 0.599609
0.579102 0.579102 0.579102
0.696289 0.696289 0.696289
0.626953 0.626953 0.626953
0.565430 0.565430 0.565430
0.581055 0.581055 0.581055
0.667969 0.667969 0.667969
0.753906 0.753906 0.753906
0.738281 0.738281 0.738281
0.711914 0.711914 0.711914
0.683594 0.683594 0.683594
0.797852 0.797852 0.797852
0.795898 0.795898 0.795898
0.763672 0.763672 0.763672
0.712891 0.712891 0.712891
0.762695 0.762695 0.762695
0.846680 0.846680 0.846680
0.859375 0.859375 0.859375
0.833008 0.833008 0.833008
0.804688 0.804688 0.804688
0.797852 0.797852 0.797852
0.797852 0.797852 0.797852
0.797852 0.797852 0.797852
0.797852 0.797852 0.797852
0.822266 0.822266 0.822266
0.887695 0.887695 0.887695
0.959961 0.959961 0.959961
0.940430 0.940430 0.940430
0.914063 0.914063 0.914063
0.797852 0.797852 0.797852
0.797852 0.797852 0.797852
0.797852 0.797852 0.797852
0.797852 0.797852 0.797852
0.805664 0.805664 0.805664
0.855469 0.855469 0.855469
0.937500 0.937500 0.937500
0.987305 0.987305 0.987305
0.980469 0.980469 0.980469
0.797852 0.797852 0.797852
0.797852 0.797852 0.797852
0.797852 0.797852 0.797852
0.797852 0.797852 0.797852
0.797852 0.797852 0.797852
0.830078 0.830078 0.830078
0.899414 0.899414 0.899414
0.985352 0.985352 0.985352
0.989258 0.989258 0.989258
0.121094 0.121094 0.121094
0.127930 0.127930 0.127930
0.251953 0.251953 0.251953
0.377930 0.377930 0.377930
0.470703 0.470703 0.470703
0.508789 0.508789 0.508789
0.536133 0.536133 0.536133
0.551758 0.551758 0.551758
0.560547 0.560547 0.560547
0.125977 0.125977 0.125977
0.124023 0.124023 0.124023
0.191406 0.191406 0.191406
0.328125 0.328125 0.328125
0.410156 0.410156 0.410156
0.461914 0.461914 0.461914
0.501953 0.501953 0.501953
0.531250 0.531250 0.531250
0.549805 0.549805 0.549805
0.136719 0.136719 0.136719
0.132813 0.132813 0.132813
0.146484 0.146484 0.146484
0.269531 0.269531 0.269531
0.393555 0.393555 0.393555
0.446289 0.446289 0.446289
0.458984 0.458984 0.458984
0.494141 0.494141 0.494141
0.526367 0.526367 0.526367
0.448242 0.448242 0.448242
0.315430 0.315430 0.315430
0.147461 0.147461 0.147461
0.215820 0.215820 0.215820
0.339844 0.339844 0.339844
0.498047 0.498047 0.498047
0.544922 0.544922 0.544922
0.544922 0.544922 0.544922
0.540039 0.540039 0.540039
0.710938 0.710938 0.710938
0.643555 0.643555 0.643555
0.566406 0.566406 0.566406
0.499023 0.499023 0.499023
0.515625 0.515625 0.515625
0.637695 0.637695 0.637695
0.678711 0.678711 0.678711
0.666016 0.666016 0.666016
0.650391 0.650391 0.650391
0.797852 0.797852 0.797852
0.797852 0.797852 0.797852
0.773438 0.773438 0.773438
0.721680 0.721680 0.721680
0.720703 0.720703 0.720703
0.751953 0.751953 0.751953
0.816406 0.816406 0.816406
0.798828 0.798828 0.798828
0.777344 0.777344 0.777344
0.797852 0.797852 0.797852
0.797852 0.797852 0.797852
0.797852 0.797852 0.797852
0.797852 0.797852 0.797852
0.818359 0.818359 0.818359
0.870117 0.870117 0.870117
0.919922 0.919922 0.919922
0.920898 0.920898 0.920898
0.898438 0.898438 0.898438
0.797852 0.797852 0.797852
0.797852 0.797852 0.797852
0.797852 0.797852 0.797852
0.797852 0.797852 0.797852
0.802734 0.802734 0.802734
0.850586 0.850586 0.850586
0.929688 0.929688 0.929688
1.000000 1.000000 1.000000
0.993164 0.993164 0.993164
0.797852 0.797852 0.797852
0.797852 0.797852 0.797852
0.797852 0.797852 0.797852
0.797852 0.797852 0.797852
0.797852 0.797852 0.797852
0.826172 0.826172 0.826172
0.893555 0.893555 0.893555
0.979492 0.979492 0.979492
1.000000 1.000000 1.000000
0.122070 0.122070 0.122070
0.123047 0.123047 0.123047
0.232422 0.232422 0.232422
0.364258 0.364258 0.364258
0.412109 0.412109 0.412109
0.428711 0.428711 0.428711
0.470703 0.470703 0.470703
0.508789 0.508789 0.508789
0.536133 0.536133 0.536133
0.126953 0.126953 0.126953
0.125000 0.125000 0.125000
0.168945 0.168945 0.168945
0.302734 0.302734 0.302734
0.412109 0.412109 0.412109
0.413086 0.413086 0.413086
0.417969 0.417969 0.417969
0.462891 0.462891 0.462891
0.501953 0.501953 0.501953
0.137695 0.137695 0.137695
0.133789 0.133789 0.133789
0.139648 0.139648 0.139648
0.240234 0.240234 0.240234
0.366211 0.366211 0.366211
0.413086 0.413086 0.413086
0.413086 0.413086 0.413086
0.410156 0.410156 0.410156
0.454102 0.454102 0.454102
0.473633 0.473633 0.473633
0.350586 0.350586 0.350586
0.182617 0.182617 0.182617
0.202148 0.202148 0.202148
0.311523 0.311523 0.311523
0.412109 0.412109 0.412109
0.413086 0.413086 0.413086
0.427734 0.427734 0.427734
0.450195 0.450195 0.450195
0.724609 0.724609 0.724609
0.660156 0.660156 0.660156
0.584961 0.584961 0.584961
0.516602 0.516602 0.516602
0.502930 0.502930 0.502930
0.507813 0.507813 0.507813
0.530273 0.530273 0.530273
0.541992 0.541992 0.541992
0.552734 0.552734 0.552734
0.797852 0.797852 0.797852
0.797852 0.797852 0.797852
0.782227 0.782227 0.782227
0.735352 0.735352 0.735352
0.729492 0.729492 0.729492
0.756836 0.756836 0.756836
0.779297 0.779297 0.779297
0.710938 0.710938 0.710938
0.703125 0.703125 0.703125
0.797852 0.797852 0.797852
0.797852 0.797852 0.797852
0.797852 0.797852 0.797852
0.797852 0.797852 0.797852
0.815430 0.815430 0.815430
0.871094 0.871094 0.871094
0.922852 0.922852 0.922852
0.908203 0.908203 0.908203
0.853516 0.853516 0.853516
0.797852 0.797852 0.797852
0.797852 0.797852 0.797852
0.797852 0.797852 0.797852
0.797852 0.797852 0.797852
0.799805 0.799805 0.799805
0.845703 0.845703 0.845703
0.922852 0.922852 0.922852
1.000000 1.000000 1.000000
0.994141 0.994141 0.994141
0.797852 0.797852 0.797852
0.797852 0.797852 0.797852
0.797852 0.797852 0.797852
0.797852 0.797852 0.797852
0.797852 0.797852 0.797852
0.822266 0.822266 0.822266
0.887695 0.887695 0.887695
0.973633 0.973633 0.973633
1.000000 1.000000 1.000000
