tests/files/FLog2C_to_ACROS_33grid_V.1.00.cube
#title:FLog2C_to_ACROS
#model:GFX ETERNA 55
#FUJIFILM Corporation
#Gamma:F-Log2C to ACROS
#Gamut:F-GamutC to ITU-R BT.709
#Version:1.00
LUT_3D_SIZE 33
0.000000 0.000000 0.000000
0.000000 0.000000 0.000000
0.002930 0.002930 0.002930
0.011719 0.011719 0.011719
0.024414 0.024414 0.024414
0.041016 0.041016 0.041016
0.069336 0.069336 0.069336
0.111328 0.111328 0.111328
0.159180 0.159180 0.159180
0.216797 0.216797 0.216797
0.284180 0.284180 0.284180
0.366211 0.366211 0.366211
0.448242 0.448242 0.448242
0.513672 0.513672 0.513672
0.558594 0.558594 0.558594
0.558594 0.558594 0.558594
0.558594 0.558594 0.558594
0.558594 0.558594 0.558594
0.558594 0.558594 0.558594
0.558594 0.558594 0.558594
0.558594 0.558594 0.558594
0.558594 0.558594 0.558594
0.558594 0.558594 0.558594
0.558594 0.558594 0.558594
0.558594 0.558594 0.558594
0.558594 0.558594 0.558594
0.558594 0.558594 0.558594
0.558594 0.558594 0.558594
0.558594 0.558594 0.558594
0.558594 0.558594 0.558594
0.558594 0.558594 0.558594
0.558594 0.558594 0.558594
0.558594 0.558594 0.558594
0.000000 0.000000 0.000000
0.000000 0.000000 0.000000
0.000977 0.000977 0.000977
0.007813 0.007813 0.007813
0.017578 0.017578 0.017578
0.033203 0.033203 0.033203
0.056641 0.056641 0.056641
0.093750 0.093750 0.093750
0.137695 0.137695 0.137695
0.190430 0.190430 0.190430
0.254883 0.254883 0.254883
0.329102 0.329102 0.329102
0.416992 0.416992 0.416992
0.485352 0.485352 0.485352
0.549805 0.549805 0.549805
0.558594 0.558594 0.558594
0.558594 0.558594 0.558594
0.558594 0.558594 0.558594
0.558594 0.558594 0.558594
0.558594 0.558594 0.558594
0.558594 0.558594 0.558594
0.558594 0.558594 0.558594
0.558594 0.558594 0.558594
0.558594 0.558594 0.558594
0.558594 0.558594 0.558594
0.558594 0.558594 0.558594
0.558594 0.558594 0.558594
0.558594 0.558594 0.558594
0.558594 0.558594 0.558594
0.558594 0.558594 0.558594
0.558594 0.558594 0.558594
0.558594 0.558594 0.558594
0.558594 0.558594 0.558594
0.000000 0.000000 0.000000
0.000000 0.000000 0.000000
0.000000 0.000000 0.000000
0.003906 0.003906 0.003906
0.012695 0.012695 0.012695
0.026367 0.026367 0.026367
0.044922 0.044922 0.044922
0.077148 0.077148 0.077148
0.117188 0.117188 0.117188
0.166016 0.166016 0.166016
0.227539 0.227539 0.227539
0.294922 0.294922 0.294922
0.379883 0.379883 0.379883
0.458984 0.458984 0.458984
0.522461 0.522461 0.522461
0.558594 0.558594 0.558594
0.558594 0.558594 0.558594
0.558594 0.558594 0.558594
0.558594 0.558594 0.558594
0.558594 0.558594 0.558594
0.558594 0.558594 0.558594
0.558594 0.558594 0.558594
0.558594 0.558594 0.558594
0.558594 0.558594 0.558594
0.558594 0.558594 0.558594
0.558594 0.558594 0.558594
0.558594 0.558594 0.558594
0.558594 0.558594 0.558594
0.558594 0.558594 0.558594
0.558594 0.558594 0.558594
0.558594 0.558594 0.558594
0.558594 0.558594 0.558594
0.558594 0.558594 0.558594
0.006836 0.006836 0.006836
0.004883 0.004883 0.004883
0.000977 0.000977 0.000977
0.000977 0.000977 0.000977
0.008789 0.008789 0.008789
0.020508 0.020508 0.020508
0.036133 0.036133 0.036133
0.063477 0.063477 0.063477
0.099609 0.099609 0.099609
0.144531 0.144531 0.144531
0.201172 0.201172 0.201172
0.264648 0.264648 0.264648
0.342773 0.342773 0.342773
0.430664 0.430664 0.430664
0.497070 0.497070 0.497070
0.557617 0.557617 0.557617
0.558594 0.558594 0.558594
0.558594 0.558594 0.558594
0.558594 0.558594 0.558594
0.558594 0.558594 0.558594
0.558594 0.558594 0.558594
0.558594 0.558594 0.558594
0.558594 0.558594 0.558594
0.558594 0.558594 0.558594
0.558594 0.558594 0.558594
0.558594 0.558594 0.558594
0.558594 0.558594 0.558594
0.558594 0.558594 0.558594
0.558594 0.558594 0.558594
0.558594 0.558594 0.558594
0.558594 0.558594 0.558594
0.558594 0.558594 0.558594
0.558594 0.558594 0.558594
0.019531 0.019531 0.019531
0.014648 0.014648 0.014648
0.010742 0.010742 0.010742
0.006836 0.006836 0.006836
0.009766 0.009766 0.009766
0.016602 0.016602 0.016602
0.027344 0.027344 0.027344
0.048828 0.048828 0.048828
0.082031 0.082031 0.082031
0.125000 0.125000 0.125000
0.175781 0.175781 0.175781
0.238281 0.238281 0.238281
0.306641 0.306641 0.306641
0.393555 0.393555 0.393555
0.468750 0.468750 0.468750
0.533203 0.533203 0.533203
0.558594 0.558594 0.558594
0.558594 0.558594 0.558594
0.558594 0.558594 0.558594
0.558594 0.558594 0.558594
0.558594 0.558594 0.558594
0.558594 0.558594 0.558594
0.558594 0.558594 0.558594
0.558594 0.558594 0.558594
0.558594 0.558594 0.558594
0.558594 0.558594 0.558594
0.558594 0.558594 0.558594
0.558594 0.558594 0.558594
0.558594 0.558594 0.558594
0.558594 0.558594 0.558594
0.558594 0.558594 0.558594
0.558594 0.558594 0.558594
0.558594 0.558594 0.558594
0.037109 0.037109 0.037109
0.031250 0.031250 0.031250
0.024414 0.024414 0.024414
0.019531 0.019531 0.019531
0.018555 0.018555 0.018555
0.023438 0.023438 0.023438
0.032227 0.032227 0.032227
0.044922 0.044922 0.044922
0.070313 0.070313 0.070313
0.106445 0.106445 0.106445
0.152344 0.152344 0.152344
0.209961 0.209961 0.209961
0.276367 0.276367 0.276367
0.356445 0.356445 0.356445
0.441406 0.441406 0.441406
0.505859 0.505859 0.505859
0.558594 0.558594 0.558594
0.558594 0.558594 0.558594
0.558594 0.558594 0.558594
0.558594 0.558594 0.558594
0.558594 0.558594 0.558594
0.558594 0.558594 0.558594
0.558594 0.558594 0.558594
0.558594 0.558594 0.558594
0.558594 0.558594 0.558594
0.558594 0.558594 0.558594
0.558594 0.558594 0.558594
0.558594 0.558594 0.558594
0.558594 0.558594 0.558594
0.558594 0.558594 0.558594
0.558594 0.558594 0.558594
0.558594 0.558594 0.558594
0.558594 0.558594 0.558594
0.057617 0.057617 0.057617
0.051758 0.051758 0.051758
0.043945 0.043945 0.043945
0.037109 0.037109 0.037109
0.031250 0.031250 0.031250
0.033203 0.033203 0.033203
0.041016 0.041016 0.041016
0.050781 0.050781 0.050781
0.072266 0.072266 0.072266
0.103516 0.103516 0.103516
0.143555 0.143555 0.143555
0.189453 0.189453 0.189453
0.248047 0.248047 0.248047
0.320313 0.320313 0.320313
0.408203 0.408203 0.408203
0.478516 0.478516 0.478516
0.542969 0.542969 0.542969
0.558594 0.558594 0.558594
0.558594 0.558594 0.558594
0.558594 0.558594 0.558594
0.558594 0.558594 0.558594
0.558594 0.558594 0.558594
0.558594 0.558594 0.558594
0.558594 0.558594 0.558594
0.558594 0.558594 0.558594
0.558594 0.558594 0.558594
0.558594 0.558594 0.558594
0.558594 0.558594 0.558594
0.558594 0.558594 0.558594
0.558594 0.558594 0.558594
0.558594 0.558594 0.558594
0.558594 0.558594 0.558594
0.558594 0.558594 0.558594
0.087891 0.087891 0.087891
0.078125 0.078125 0.078125
0.067383 0.067383 0.067383
0.059570 0.059570 0.059570
0.051758 0.051758 0.051758
0.049805 0.049805 0.049805
0.054688 0.054688 0.054688
0.063477 0.063477 0.063477
0.079102 0.079102 0.079102
0.106445 0.106445 0.106445
0.142578 0.142578 0.142578
0.187500 0.187500 0.187500
0.239258 0.239258 0.239258
0.302734 0.302734 0.302734
0.379883 0.379883 0.379883
0.452148 0.452148 0.452148
0.516602 0.516602 0.516602
0.558594 0.558594 0.558594
0.558594 0.558594 0.558594
0.558594 0.558594 0.558594
0.558594 0.558594 0.558594
0.558594 0.558594 0.558594
0.558594 0.558594 0.558594
0.558594 0.558594 0.558594
0.558594 0.558594 0.558594
0.558594 0.558594 0.558594
0.558594 0.558594 0.558594
0.558594 0.558594 0.558594
0.558594 0.558594 0.558594
0.558594 0.558594 0.558594
0.558594 0.558594 0.558594
0.558594 0.558594 0.558594
0.558594 0.558594 0.558594
0.136719 0.136719 0.136719
0.120117 0.120117 0.120117
0.107422 0.107422 0.107422
0.093750 0.093750 0.093750
0.080078 0.080078 0.080078
0.071289 0.071289 0.071289
0.073242 0.073242 0.073242
0.080078 0.080078 0.080078
0.089844 0.089844 0.089844
0.113281 0.113281 0.113281
0.146484 0.146484 0.146484
0.186523 0.186523 0.186523
0.236328 0.236328 0.236328
0.296875 0.296875 0.296875
0.373047 0.373047 0.373047
0.453125 0.453125 0.453125
0.506836 0.506836 0.506836
0.559570 0.559570 0.559570
0.560547 0.560547 0.560547
0.558594 0.558594 0.558594
0.558594 0.558594 0.558594
0.558594 0.558594 0.558594
0.558594 0.558594 0.558594
0.558594 0.558594 0.558594
0.558594 0.558594 0.558594
0.558594 0.558594 0.558594
0.558594 0.558594 0.558594
0.558594 0.558594 0.558594
0.558594 0.558594 0.558594
0.558594 0.558594 0.558594
0.558594 0.558594 0.558594
0.558594 0.558594 0.558594
0.558594 0.558594 0.558594
0.194336 0.194336 0.194336
0.175781 0.175781 0.175781
0.158203 0.158203 0.158203
0.140625 0.140625 0.140625
0.125977 0.125977 0.125977
0.111328 0.111328 0.111328
0.104492 0.104492 0.104492
0.106445 0.106445 0.106445
0.113281 0.113281 0.113281
0.130859 0.130859 0.130859
0.159180 0.159180 0.159180
0.195313 0.195313 0.195313
0.242188 0.242188 0.242188
0.299805 0.299805 0.299805
0.370117 0.370117 0.370117
0.451172 0.451172 0.451172
0.509766 0.509766 0.509766
0.556641 0.556641 0.556641
0.579102 0.579102 0.579102
0.573242 0.573242 0.573242
0.567383 0.567383 0.567383
0.561523 0.561523 0.561523
0.558594 0.558594 0.558594
0.558594 0.558594 0.558594
0.558594 0.558594 0.558594
0.558594 0.558594 0.558594
0.558594 0.558594 0.558594
0.558594 0.558594 0.558594
0.558594 0.558594 0.558594
0.558594 0.558594 0.558594
0.558594 0.558594 0.558594
0.558594 0.558594 0.558594
0.558594 0.558594 0.558594
0.256836 0.256836 0.256836
0.237305 0.237305 0.237305
0.217773 0.217773 0.217773
0.199219 0.199219 0.199219
0.181641 0.181641 0.181641
0.162109 0.162109 0.162109
0.148438 0.148438 0.148438
0.147461 0.147461 0.147461
0.150391 0.150391 0.150391
0.162109 0.162109 0.162109
0.187500 0.187500 0.187500
0.218750 0.218750 0.218750
0.256836 0.256836 0.256836
0.312500 0.312500 0.312500
0.377930 0.377930 0.377930
0.452148 0.452148 0.452148
0.517578 0.517578 0.517578
0.558594 0.558594 0.558594
0.598633 0.598633 0.598633
0.592773 0.592773 0.592773
0.585938 0.585938 0.585938
0.580078 0.580078 0.580078
0.574219 0.574219 0.574219
0.568359 0.568359 0.568359
0.562500 0.562500 0.562500
0.558594 0.558594 0.558594
0.558594 0.558594 0.558594
0.558594 0.558594 0.558594
0.558594 0.558594 0.558594
0.558594 0.558594 0.558594
0.558594 0.558594 0.558594
0.558594 0.558594 0.558594
0.558594 0.558594 0.558594
0.325195 0.325195 0.325195
0.304688 0.304688 0.304688
0.283203 0.283203 0.283203
0.262695 0.262695 0.262695
0.242188 0.242188 0.242188
0.223633 0.223633 0.223633
0.205078 0.205078 0.205078
0.199219 0.199219 0.199219
0.198242 0.198242 0.198242
0.206055 0.206055 0.206055
0.224609 0.224609 0.224609
0.252930 0.252930 0.252930
0.288086 0.288086 0.288086
0.332031 0.332031 0.332031
0.388672 0.388672 0.388672
0.457031 0.457031 0.457031
0.524414 0.524414 0.524414
0.566406 0.566406 0.566406
0.605469 0.605469 0.605469
0.613281 0.613281 0.613281
0.606445 0.606445 0.606445
0.599609 0.599609 0.599609
0.593750 0.593750 0.593750
0.587891 0.587891 0.587891
0.581055 0.581055 0.581055
0.575195 0.575195 0.575195
0.569336 0.569336 0.569336
0.563477 0.563477 0.563477
0.558594 0.558594 0.558594
0.558594 0.558594 0.558594
0.558594 0.558594 0.558594
0.558594 0.558594 0.558594
0.558594 0.558594 0.558594
0.400391 0.400391 0.400391
0.377930 0.377930 0.377930
0.354492 0.354492 0.354492
0.332031 0.332031 0.332031
0.309570 0.309570 0.309570
0.288086 0.288086 0.288086
0.267578 0.267578 0.267578
0.253906 0.253906 0.253906
0.251953 0.251953 0.251953
0.256836 0.256836 0.256836
0.270508 0.270508 0.270508
0.293945 0.293945 0.293945
0.324219 0.324219 0.324219
0.362305 0.362305 0.362305
0.409180 0.409180 0.409180
0.468750 0.468750 0.468750
0.532227 0.532227 0.532227
0.581055 0.581055 0.581055
0.613281 0.613281 0.613281
0.636719 0.636719 0.636719
0.629883 0.629883 0.629883
0.622070 0.622070 0.622070
0.615234 0.615234 0.615234
0.608398 0.608398 0.608398
0.601563 0.601563 0.601563
0.594727 0.594727 0.594727
0.588867 0.588867 0.588867
0.582031 0.582031 0.582031
0.576172 0.576172 0.576172
0.570313 0.570313 0.570313
0.564453 0.564453 0.564453
0.559570 0.559570 0.559570
0.558594 0.558594 0.558594
0.473633 0.473633 0.473633
0.451172 0.451172 0.451172
0.428711 0.428711 0.428711
0.406250 0.406250 0.406250
0.382813 0.382813 0.382813
0.360352 0.360352 0.360352
0.337891 0.337891 0.337891
0.315430 0.315430 0.315430
0.310547 0.310547 0.310547
0.310547 0.310547 0.310547
0.322266 0.322266 0.322266
0.341797 0.341797 0.341797
0.366211 0.366211 0.366211
0.399414 0.399414 0.399414
0.439453 0.439453 0.439453
0.488281 0.488281 0.488281
0.544922 0.544922 0.544922
0.598633 0.598633 0.598633
0.626953 0.626953 0.626953
0.654297 0.654297 0.654297
0.653320 0.653320 0.653320
0.645508 0.645508 0.645508
0.637695 0.637695 0.637695
0.630859 0.630859 0.630859
0.624023 0.624023 0.624023
0.616211 0.616211 0.616211
0.609375 0.609375 0.609375
0.603516 0.603516 0.603516
0.595703 0.595703 0.595703
0.588867 0.588867 0.588867
0.583008 0.583008 0.583008
0.577148 0.577148 0.577148
0.571289 0.571289 0.571289
0.543945 0.543945 0.543945
0.522461 0.522461 0.522461
0.500977 0.500977 0.500977
0.478516 0.478516 0.478516
0.457031 0.457031 0.457031
0.434570 0.434570 0.434570
0.411133 0.411133 0.411133
0.388672 0.388672 0.388672
0.375977 0.375977 0.375977
0.373047 0.373047 0.373047
0.380859 0.380859 0.380859
0.396484 0.396484 0.396484
0.416016 0.416016 0.416016
0.442383 0.442383 0.442383
0.476563 0.476563 0.476563
0.517578 0.517578 0.517578
0.565430 0.565430 0.565430
0.614258 0.614258 0.614258
0.645508 0.645508 0.645508
0.668945 0.668945 0.668945
0.678711 0.678711 0.678711
0.670898 0.670898 0.670898
0.663086 0.663086 0.663086
0.655273 0.655273 0.655273
0.646484 0.646484 0.646484
0.639648 0.639648 0.639648
0.631836 0.631836 0.631836
0.625000 0.625000 0.625000
0.618164 0.618164 0.618164
0.610352 0.610352 0.610352
0.603516 0.603516 0.603516
0.597656 0.597656 0.597656
0.590820 0.590820 0.590820
0.608398 0.608398 0.608398
0.588867 0.588867 0.588867
0.570313 0.570313 0.570313
0.549805 0.549805 0.549805
0.528320 0.528320 0.528320
0.506836 0.506836 0.506836
0.484375 0.484375 0.484375
0.462891 0.462891 0.462891
0.443359 0.443359 0.443359
0.440430 0.440430 0.440430
0.444336 0.444336 0.444336
0.457031 0.457031 0.457031
0.472656 0.472656 0.472656
0.493164 0.493164 0.493164
0.521484 0.521484 0.521484
0.555664 0.555664 0.555664
0.594727 0.594727 0.594727
0.636719 0.636719 0.636719
0.668945 0.668945 0.668945
0.688477 0.688477 0.688477
0.702148 0.702148 0.702148
0.695313 0.695313 0.695313
0.687500 0.687500 0.687500
0.679688 0.679688 0.679688
0.672852 0.672852 0.672852
0.664063 0.664063 0.664063
0.656250 0.656250 0.656250
0.648438 0.648438 0.648438
0.640625 0.640625 0.640625
0.633789 0.633789 0.633789
0.625977 0.625977 0.625977
0.619141 0.619141 0.619141
0.612305 0.612305 0.612305
0.657227 0.657227 0.657227
0.644531 0.644531 0.644531
0.628906 0.628906 0.628906
0.612305 0.612305 0.612305
0.593750 0.593750 0.593750
0.574219 0.574219 0.574219
0.554688 0.554688 0.554688
0.533203 0.533203 0.533203
0.511719 0.511719 0.511719
0.504883 0.504883 0.504883
0.507813 0.507813 0.507813
0.517578 0.517578 0.517578
0.530273 0.530273 0.530273
0.546875 0.546875 0.546875
0.569336 0.569336 0.569336
0.596680 0.596680 0.596680
0.628906 0.628906 0.628906
0.664063 0.664063 0.664063
0.695313 0.695313 0.695313
0.708984 0.708984 0.708984
0.721680 0.721680 0.721680
0.720703 0.720703 0.720703
0.712891 0.712891 0.712891
0.705078 0.705078 0.705078
0.697266 0.697266 0.697266
0.689453 0.689453 0.689453
0.680664 0.680664 0.680664
0.672852 0.672852 0.672852
0.666016 0.666016 0.666016
0.657227 0.657227 0.657227
0.650391 0.650391 0.650391
0.642578 0.642578 0.642578
0.634766 0.634766 0.634766
0.672852 0.672852 0.672852
0.668945 0.668945 0.668945
0.665039 0.665039 0.665039
0.659180 0.659180 0.659180
0.647461 0.647461 0.647461
0.632813 0.632813 0.632813
0.616211 0.616211 0.616211
0.597656 0.597656 0.597656
0.579102 0.579102 0.579102
0.566406 0.566406 0.566406
0.569336 0.569336 0.569336
0.576172 0.576172 0.576172
0.585938 0.585938 0.585938
0.599609 0.599609 0.599609
0.617188 0.617188 0.617188
0.639648 0.639648 0.639648
0.665039 0.665039 0.665039
0.695313 0.695313 0.695313
0.723633 0.723633 0.723633
0.736328 0.736328 0.736328
0.742188 0.742188 0.742188
0.746094 0.746094 0.746094
0.737305 0.737305 0.737305
0.730469 0.730469 0.730469
0.721680 0.721680 0.721680
0.714844 0.714844 0.714844
0.706055 0.706055 0.706055
0.698242 0.698242 0.698242
0.690430 0.690430 0.690430
0.682617 0.682617 0.682617
0.674805 0.674805 0.674805
0.666992 0.666992 0.666992
0.659180 0.659180 0.659180
0.683594 0.683594 0.683594
0.680664 0.680664 0.680664
0.676758 0.676758 0.676758
0.673828 0.673828 0.673828
0.669922 0.669922 0.669922
0.666016 0.666016 0.666016
0.661133 0.661133 0.661133
0.651367 0.651367 0.651367
0.636719 0.636719 0.636719
0.620117 0.620117 0.620117
0.622070 0.622070 0.622070
0.627930 0.627930 0.627930
0.637695 0.637695 0.637695
0.649414 0.649414 0.649414
0.664063 0.664063 0.664063
0.683594 0.683594 0.683594
0.705078 0.705078 0.705078
0.728516 0.728516 0.728516
0.752930 0.752930 0.752930
0.769531 0.769531 0.769531
0.768555 0.768555 0.768555
0.767578 0.767578 0.767578
0.763672 0.763672 0.763672
0.754883 0.754883 0.754883
0.748047 0.748047 0.748047
0.739258 0.739258 0.739258
0.731445 0.731445 0.731445
0.723633 0.723633 0.723633
0.715820 0.715820 0.715820
0.708008 0.708008 0.708008
0.700195 0.700195 0.700195
0.692383 0.692383 0.692383
0.684570 0.684570 0.684570
0.692383 0.692383 0.692383
0.690430 0.690430 0.690430
0.687500 0.687500 0.687500
0.684570 0.684570 0.684570
0.680664 0.680664 0.680664
0.677734 0.677734 0.677734
0.673828 0.673828 0.673828
0.669922 0.669922 0.669922
0.666992 0.666992 0.666992
0.662109 0.662109 0.662109
0.662109 0.662109 0.662109
0.670898 0.670898 0.670898
0.680664 0.680664 0.680664
0.691406 0.691406 0.691406
0.705078 0.705078 0.705078
0.722656 0.722656 0.722656
0.741211 0.741211 0.741211
0.761719 0.761719 0.761719
0.784180 0.784180 0.784180
0.802734 0.802734 0.802734
0.799805 0.799805 0.799805
0.792969 0.792969 0.792969
0.787109 0.787109 0.787109
0.779297 0.779297 0.779297
0.772461 0.772461 0.772461
0.764648 0.764648 0.764648
0.756836 0.756836 0.756836
0.749023 0.749023 0.749023
0.741211 0.741211 0.741211
0.732422 0.732422 0.732422
0.725586 0.725586 0.725586
0.716797 0.716797 0.716797
0.708984 0.708984 0.708984
0.698242 0.698242 0.698242
0.696289 0.696289 0.696289
0.694336 0.694336 0.694336
0.692383 0.692383 0.692383
0.690430 0.690430 0.690430
0.687500 0.687500 0.687500
0.684570 0.684570 0.684570
0.681641 0.681641 0.681641
0.678711 0.678711 0.678711
0.674805 0.674805 0.674805
0.672852 0.672852 0.672852
0.685547 0.685547 0.685547
0.703125 0.703125 0.703125
0.720703 0.720703 0.720703
0.737305 0.737305 0.737305
0.754883 0.754883 0.754883
0.772461 0.772461 0.772461
0.791992 0.791992 0.791992
0.812500 0.812500 0.812500
0.828125 0.828125 0.828125
0.830078 0.830078 0.830078
0.821289 0.821289 0.821289
0.811523 0.811523 0.811523
0.802734 0.802734 0.802734
0.795898 0.795898 0.795898
0.789063 0.789063 0.789063
0.781250 0.781250 0.781250
0.773438 0.773438 0.773438
0.766602 0.766602 0.766602
0.757813 0.757813 0.757813
0.750977 0.750977 0.750977
0.742188 0.742188 0.742188
0.734375 0.734375 0.734375
0.701172 0.701172 0.701172
0.701172 0.701172 0.701172
0.700195 0.700195 0.700195
0.698242 0.698242 0.698242
0.697266 0.697266 0.697266
0.695313 0.695313 0.695313
0.692383 0.692383 0.692383
0.690430 0.690430 0.690430
0.687500 0.687500 0.687500
0.685547 0.685547 0.685547
0.681641 0.681641 0.681641
0.688477 0.688477 0.688477
0.702148 0.702148 0.702148
0.719727 0.719727 0.719727
0.740234 0.740234 0.740234
0.763672 0.763672 0.763672
0.788086 0.788086 0.788086
0.808594 0.808594 0.808594
0.829102 0.829102 0.829102
0.846680 0.846680 0.846680
0.857422 0.857422 0.857422
0.849609 0.849609 0.849609
0.837891 0.837891 0.837891
0.828125 0.828125 0.828125
0.820313 0.820313 0.820313
0.812500 0.812500 0.812500
0.804688 0.804688 0.804688
0.796875 0.796875 0.796875
0.789063 0.789063 0.789063
0.782227 0.782227 0.782227
0.775391 0.775391 0.775391
0.767578 0.767578 0.767578
0.759766 0.759766 0.759766
0.701172 0.701172 0.701172
0.701172 0.701172 0.701172
0.701172 0.701172 0.701172
0.701172 0.701172 0.701172
0.701172 0.701172 0.701172
0.700195 0.700195 0.700195
0.699219 0.699219 0.699219
0.697266 0.697266 0.697266
0.695313 0.695313 0.695313
0.693359 0.693359 0.693359
0.690430 0.690430 0.690430
0.691406 0.691406 0.691406
0.702148 0.702148 0.702148
0.716797 0.716797 0.716797
0.734375 0.734375 0.734375
0.755859 0.755859 0.755859
0.779297 0.779297 0.779297
0.803711 0.803711 0.803711
0.829102 0.829102 0.829102
0.853516 0.853516 0.853516
0.870117 0.870117 0.870117
0.872070 0.872070 0.872070
0.863281 0.863281 0.863281
0.850586 0.850586 0.850586
0.843750 0.843750 0.843750
0.836914 0.836914 0.836914
0.830078 0.830078 0.830078
0.822266 0.822266 0.822266
0.814453 0.814453 0.814453
0.805664 0.805664 0.805664
0.798828 0.798828 0.798828
0.791992 0.791992 0.791992
0.784180 0.784180 0.784180
0.701172 0.701172 0.701172
0.701172 0.701172 0.701172
0.701172 0.701172 0.701172
0.701172 0.701172 0.701172
0.701172 0.701172 0.701172
0.701172 0.701172 0.701172
0.701172 0.701172 0.701172
0.701172 0.701172 0.701172
0.700195 0.700195 0.700195
0.699219 0.699219 0.699219
0.697266 0.697266 0.697266
0.695313 0.695313 0.695313
0.702148 0.702148 0.702148
0.713867 0.713867 0.713867
0.729492 0.729492 0.729492
0.748047 0.748047 0.748047
0.768555 0.768555 0.768555
0.791992 0.791992 0.791992
0.816406 0.816406 0.816406
0.841797 0.841797 0.841797
0.865234 0.865234 0.865234
0.883789 0.883789 0.883789
0.880859 0.880859 0.880859
0.872070 0.872070 0.872070
0.863281 0.863281 0.863281
0.857422 0.857422 0.857422
0.851563 0.851563 0.851563
0.845703 0.845703 0.845703
0.837891 0.837891 0.837891
0.831055 0.831055 0.831055
0.823242 0.823242 0.823242
0.815430 0.815430 0.815430
0.807617 0.807617 0.807617
0.702148 0.702148 0.702148
0.701172 0.701172 0.701172
0.701172 0.701172 0.701172
0.701172 0.701172 0.701172
0.701172 0.701172 0.701172
0.701172 0.701172 0.701172
0.701172 0.701172 0.701172
0.701172 0.701172 0.701172
0.701172 0.701172 0.701172
0.701172 0.701172 0.701172
0.701172 0.701172 0.701172
0.700195 0.700195 0.700195
0.703125 0.703125 0.703125
0.711914 0.711914 0.711914
0.723633 0.723633 0.723633
0.740234 0.740234 0.740234
0.758789 0.758789 0.758789
0.780273 0.780273 0.780273
0.803711 0.803711 0.803711
0.827148 0.827148 0.827148
0.851563 0.851563 0.851563
0.873047 0.873047 0.873047
0.884766 0.884766 0.884766
0.884766 0.884766 0.884766
0.878906 0.878906 0.878906
0.874023 0.874023 0.874023
0.870117 0.870117 0.870117
0.864258 0.864258 0.864258
0.859375 0.859375 0.859375
0.852539 0.852539 0.852539
0.846680 0.846680 0.846680
0.839844 0.839844 0.839844
0.833008 0.833008 0.833008
0.702148 0.702148 0.702148
0.702148 0.702148 0.702148
0.701172 0.701172 0.701172
0.701172 0.701172 0.701172
0.701172 0.701172 0.701172
0.701172 0.701172 0.701172
0.701172 0.701172 0.701172
0.701172 0.701172 0.701172
0.701172 0.701172 0.701172
0.701172 0.701172 0.701172
0.701172 0.701172 0.701172
0.701172 0.701172 0.701172
0.701172 0.701172 0.701172
0.708984 0.708984 0.708984
0.719727 0.719727 0.719727
0.733398 0.733398 0.733398
0.749023 0.749023 0.749023
0.768555 0.768555 0.768555
0.790039 0.790039 0.790039
0.812500 0.812500 0.812500
0.836914 0.836914 0.836914
0.860352 0.860352 0.860352
0.879883 0.879883 0.879883
0.884766 0.884766 0.884766
0.884766 0.884766 0.884766
0.884766 0.884766 0.884766
0.882813 0.882813 0.882813
0.879883 0.879883 0.879883
0.875977 0.875977 0.875977
0.871094 0.871094 0.871094
0.866211 0.866211 0.866211
0.860352 0.860352 0.860352
0.853516 0.853516 0.853516
0.702148 0.702148 0.702148
0.702148 0.702148 0.702148
0.702148 0.702148 0.702148
0.701172 0.701172 0.701172
0.701172 0.701172 0.701172
0.701172 0.701172 0.701172
0.701172 0.701172 0.701172
0.701172 0.701172 0.701172
0.701172 0.701172 0.701172
0.701172 0.701172 0.701172
0.701172 0.701172 0.701172
0.701172 0.701172 0.701172
0.701172 0.701172 0.701172
0.705078 0.705078 0.705078
0.714844 0.714844 0.714844
0.726563 0.726563 0.726563
0.740234 0.740234 0.740234
0.756836 0.756836 0.756836
0.776367 0.776367 0.776367
0.798828 0.798828 0.798828
0.821289 0.821289 0.821289
0.844727 0.844727 0.844727
0.867188 0.867188 0.867188
0.883789 0.883789 0.883789
0.884766 0.884766 0.884766
